**kern	**kern
*staff2	*staff1
*clefF4	*clefG2
*k[b-e-a-d-g-]	*k[b-e-a-d-g-]
*M3/4	*M3/4
=1-	=1-
(2BB-/	(2B-/
12AAn/L	12An/L
12BB-/	12B-/
12D-/J	12d-/J
=2	=2
4F\)	4f/)
4r	4r
(12AAn/L	(12An/L
12BB-/	12B-/
12D-/J	12d-/J
=3	=3
4F\)	4f/)
4r	4r
4r	4r
=4	=4
2.r	2.r
=5	=5
4BBB-'/ 4BB-'/	4B-'/
4r	4r
4r	4r
=6	=6
*clefG2	*
[2.B-/ [2.c/ [2.e-/ [2.g-/ [2.b-/	([2.bb-\ [2.ggg-\ [2.bbb-\
=7	=7
2.B-/] 2.c/] 2.e-/] 2.g-/] 2.b-/]	2.bb-\] 2.ggg-\] 2.bbb-\]
=8	=8
4.B-/ 4.c/ 4.e-/ 4.g-/ 4.b-/	4.ee-\ 4.ccc\ 4.eee-\
8B-/ 8c/ 8e-/ 8g-/ 8b-/	8ff\ 8ccc\ 8fff\
4B-/ 4c/ 4e-/ 4g-/ 4b-/	4gg-\ 4ccc\ 4ggg-\
=9	=9
!!linebreak:original
4B-'/ 4d-'/ 4f'/ 4b-'/	4ff'\) 4ddd-'\ 4fff'\
4r	4r
*clefF4	*
(12AAn/L	(12An/L
12BB-/	12B-/
12D-/J	12d-/J
=10	=10
!!linebreak:original
4F\)	4f/)
4r	4r
(12AAn/L	(12An/L
12BB-/	12B-/
12D-/J	12d-/J
=11	=11
4F\)	4f/)
4r	4r
4r	4r
=12	=12
2.r	2.r
=13	=13
4AAA-'/ 4AA-'/	4A-'/
4r	4r
4r	4r
=14	=14
*clefG2	*
[2.A-/ [2.f/ [2.dd-/	([2.aa-\ [2.fff\ [2.aaa-\
=15	=15
2.A-/] 2.f/] 2.dd-/]	2.aa-\] 2.fff\] 2.aaa-\]
=16	=16
4.A-/ 4.e-/ 4.g-/ 4.a-/	4.ee-\ 4.ccc\ 4.eee-\
8A-/ 8e-/ 8g-/ 8a-/	8ff\ 8ccc\ 8fff\
4A-/ 4e-/ 4g-/ 4a-/	4gg-\ 4ccc\ 4ggg-\
=17	=17
4d-'/ 4f'/ 4a-'/	4ff'\) 4ddd-'\ 4fff'\
4r	4r
4r	4r
=18	=18
*clefF4	*
2F\ 2c\ 2f\	2an\ 2ff\
4r	4r
=19	=19
2FF/ 2C/ 2F/	2An/ 2f/
4r	4r
=20	=20
([2.FFF/ [2.FF/	2.r
=21	=21
!!pagebreak:original
2.FFF/_ 2.FF/_	2.r
=22	=22
4FFF/] 4FF/]	2.r
4GGG-'/) 4GG-'/	.
4r	.
=23	=23
2.r	2.r
=24	=24
4r	4r
4r	4r
(12AAn/L	(12An/L
12BB-/	12B-/
12D-/J	12d-/J
=25	=25
4F\)	4f/)
4r	4r
(12AAn/L	(12An/L
12BB-/	12B-/
12D-/J	12d-/J
=26	=26
4F\)	4f/)
4r	4r
4r	4r
=27	=27
2.r	2.r
=28	=28
4BBB-'/ 4BB-'/	4B-'/
4r	4r
4r	4r
=29	=29
*clefG2	*
[2.B-/ [2.c/ [2.e-/ [2.g-/ [2.b-/	([2.bb-\ [2.ggg-\ [2.bbb-\
=30	=30
4.B-/] 4.c/] 4.e-/] 4.g-/] 4.b-/]	4.bb-\] 4.ggg-\] 4.bbb-\]
8B-/ 8c/ 8e-/ 8g-/ 8b-/	8ee-\ 8ccc\ 8eee-\
4B-/ 4c/ 4e-/ 4g-/ 4b-/	4ee-\ 4ccc\ 4eee-\
=31	=31
!!linebreak:original
4.B-/ 4.c/ 4.e-/ 4.g-/ 4.b-/	4.ee-\ 4.ccc\ 4.eee-\
8B-/ 8c/ 8e-/ 8g-/ 8b-/	8ff\ 8ccc\ 8fff\
4B-/ 4c/ 4e-/ 4g-/ 4b-/	4gg-\ 4ccc\ 4ggg-\
=32	=32
!!linebreak:original
4B-'/ 4d-'/ 4f'/ 4b-'/	4ff'\) 4ddd-'\ 4fff'\
4r	4r
*clefF4	*
(12AAn/L	(12An/L
12BB-/	12B-/
12D-/J	12d-/J
=33	=33
4F\)	4f/)
4r	4r
(12AAn/L	(12An/L
12BB-/	12B-/
12D-/J	12d-/J
=34	=34
4F\)	4f/)
4r	4r
4r	4r
=35	=35
2.r	2.r
=36	=36
*	*clefF4
4CCC'/ 4CC'/	4C'/
4r	4r
4r	4r
=37	=37
*clefG2	*clefG2
[2.c/ [2.f/ [2.a-/ [2.cc/	([2.ccc\ [2.aaa-\ [2.cccc\
=38	=38
2.c/] 2.f/] 2.a-/] 2.cc/]	2.ccc\] 2.aaa-\] 2.cccc\]
=39	=39
4.c/ 4.en/ 4.b-/ 4.cc/	4.ggn\ 4.eeen\ 4.gggn\
8c/ 8e/ 8b-/ 8cc/	8aa-\ 8eee\ 8aaa-\
4c/ 4e/ 4b-/ 4cc/	4bb-\ 4eee\ 4bbb-\
=40	=40
4f'/ 4a-'/ 4cc'/	4aa-'\) 4fff'\ 4aaa-'\
4r	4r
4r	4r
=41	=41
*clefF4	*
2F\ 2c\ 2f\	2a-\ 2cc\ 2ff\ 2aa-\
4r	4r
=42	=42
!!pagebreak:original
2FF/ 2C/ 2F/	2A-/ 2c/ 2f/ 2a-/
4r	4r
=43	=43
([2.EEEn/ [2.EEn/	2.r
=44	=44
2.EEE/_ 2.EE/_	2.r
=45	=45
4EEE/] 4EE/]	2.r
4FFF'/) 4FF'/	.
4r	.
=46	=46
2.r	2.r
=47||	=47||
4DDD-'/ 4DD-'/	([2.ffff\
4r	.
(4AA-\ 4A-\	.
=48	=48
4F\) 4d-\	4ffff\]
4r	8eeee-\L
.	8dddd-\
(4AA-\ 4A-\	8aaa-\
.	8fff\J
=49	=49
4F\) 4d-\	8eee-\L
.	8ddd-\
4r	8aa-\
.	8ff\
4r	8ee-\
.	8dd-\J
=50	=50
2.r	4a-/)
.	4r
.	4r
=51	=51
4AAA-'/ 4AA-'/	(8cc\L
.	8dd-\J
4r	8ee-\L
.	8ff\J
4r	8gg-\L
.	8aa-\J
=52	=52
!!linebreak:original
(4Gn\ 4c\ 4g-\	8bb--\)
.	8r
4A-\) 4c\ 4g-\	4r
4A-\ 4c\ 4g-\	4r
=53	=53
2.r	(8bb--\L
.	8aa-\J
.	8ggn\L
.	8gg-\J
.	8ff\L
.	8ff-\J
=54	=54
(4B--\ 4c\ 4g-\	8ee-\)
.	8r
4A-\) 4c\ 4g-\	4r
4A-\ 4c\ 4g-\	4r
=55	=55
4DDD-'/ 4DD-'/	([2.ffff\
4r	.
(4AA-\ 4A-\	.
=56	=56
4F\) 4d-\	4ffff\]
4r	8eeee-\L
.	8dddd-\
(4AA-\ 4A-\	8aaa-\
.	8fff\J
=57	=57
4F\) 4d-\	8eee-\L
.	8ddd-\
4r	8aa-\
.	8ff\
4r	8ee-\
.	8dd-\J
=58	=58
2.r	4a-/)
.	4r
.	4r
=59	=59
!!linebreak:original
(2.AA-\ 2.E-\ 2.G-\	(8cc\L
.	8dd-\J
.	8ee-\L
.	8ff\J
.	8gg-\L
.	8aa-\J
=60	=60
!!linebreak:original
*clefG2	*
8c/L	8bb--\)
8d-/J	8r
8e-/L	4r
8f/J	.
8g-/L	4r
8a-/J	.
=61	=61
8b--\)	(8bb--\L
8r	8aa-\J
4r	8ggn\L
.	8gg-\J
4r	8ff\L
.	8ff-\J
=62	=62
*clefF4	*
(8B--\L	8ee-\)
8A-\J	8r
8Gn\L	4r
8G-\J	.
8F\L	4r
8E-\J	.
=63	=63
*^	*^
8D-/)	8D-\L	([2.ff/	[2.cc-\
3...ryy	8A-\	.	.
.	8d-\	.	.
.	8f\	.	.
.	8d-\	.	.
.	8A-\J	.	.
=64	=64	=64	=64
8D-/	8D-\L	4ff/]	2.cc-\]
3...ryy	8c-\	.	.
.	8d-\	4.ee-/	.
.	8f\	.	.
.	8d-\	.	.
.	8c-\J	8dd-/	.
*v	*v	*	*
*	*v	*v
=65	=65
!!pagebreak:original
*^	*^
8G-/	8G-\L	2.dd-/	2.cc-\
3...ryy	8c-\	.	.
.	8d-\	.	.
.	8g-\	.	.
.	8d-\	.	.
.	8c-\J	.	.
*v	*v	*	*
*	*v	*v
=66	=66
!!linebreak:original
*^	*^
8D-/	8D-\L	[2.gg-/	2.b-\
3...ryy	8B-\	.	.
.	8d-\	.	.
.	8g-\	.	.
.	8d-\	.	.
.	8B-\J	.	.
=67	=67	=67	=67
8A-/	8A-\L	2gg-/]	[2.cc-\
3...ryy	8c-\	.	.
.	8d-\	.	.
.	8a-\	.	.
.	8d-\	4ff/	.
.	8c-\J	.	.
=68	=68	=68	=68
8D-/	8D-\L	4ff/	2.cc-\]
3...ryy	8c-\	.	.
.	8d-\	4ee-/	.
.	8f\	.	.
.	8d-\	4dd-/	.
.	8c-\J	.	.
=69	=69	=69	=69
8G-/	8G-\L	2.bb-/	2.b-\ 2.dd-\
3...ryy	8B-\	.	.
.	8d-\	.	.
.	8g-\	.	.
.	8d-\	.	.
.	8B-\J	.	.
=70	=70	=70	=70
8F-/	8F-\L	2bb-/	2.a-\ 2.dd-\
3...ryy	8B-\	.	.
.	8d-\	.	.
.	8a-\	.	.
.	8d-\	4bb-/	.
.	8B-\J	.	.
*v	*v	*	*
*	*v	*v
=71	=71
!!linebreak:original
*^	*
8E-/	8E-\L	2.r
3...ryy	8B-\	.
.	8d-\	.
.	8gn\	.
.	8d-\	.
.	8B-\J	.
*v	*v	*
=72	=72
!!linebreak:original
*^	*
8Gn/	8G\L	2.r
3...ryy	8d-\	.
.	8e-\	.
.	8b-\	.
.	8e-\	.
.	8d-\J	.
*	*	*^
=73	=73	=73	=73
8A-/	8A-\L	2.ee-/	2.dd-\
3...ryy	8d-\	.	.
.	8e-\	.	.
.	8a-\	.	.
.	8e-\	.	.
.	8d-\J	.	.
=74	=74	=74	=74
8E-/	8E-\L	[2.aa-^/	2.cc\
3...ryy	8c\	.	.
.	8e-\	.	.
.	8a-\	.	.
.	8e-\	.	.
.	8c\J	.	.
=75	=75	=75	=75
8B-/	8B-\L	4aa-/]	[2.dd-\
3...ryy	8d-\	.	.
.	8e-\	4ggn/	.
.	8b-\	.	.
.	8e-\	4ff/	.
.	8d-\J	.	.
=76	=76	=76	=76
8E-/	8E-\L	4ggn/	2.dd-\]
3...ryy	8d-\	.	.
.	8e-\	4.ff/	.
.	8gn\	.	.
.	8e-\	.	.
.	8d-\J	8ee-/	.
*v	*v	*	*
*	*v	*v
=77	=77
!!pagebreak:original
*^	*^
8A-/	8A-\L	2.ccc/	[2.cc\
3...ryy	8c\	.	.
.	8e-\	.	.
.	8a-\	.	.
.	8e-\	.	.
.	8c\J	.	.
*v	*v	*	*
*	*v	*v
=78	=78
!!linebreak:original
*^	*^
2.Gn~/	8G\L	2ccc/	2.cc\]
.	8A-\	.	.
.	8c\	.	.
.	8e-\	.	.
.	8c\	4ccc/	.
.	8A-\J	.	.
*	*	*v	*v
=79	=79	=79
2.G-~/	8G-\L	[2.ccc\
.	8A-\	.
.	8c\	.
.	8e-\	.
.	8c\	.
.	8A-\J	.
=80	=80	=80
2.G-/	8G-\L	4ccc\]
.	8A-\	.
.	8c\	4.bb-\
.	8e-\	.
.	8c\	.
.	8A-\J	8aa-\
=81	=81	=81
2.F/	8F\L	2.aa-\
.	8A-\	.
.	8d-\	.
.	8f\	.
.	8d-\	.
.	8A-\J	.
=82	=82	=82
8F/	8F\L	2.ddd-\
3...ryy	8A-\	.
.	8d-\	.
.	8a-\	.
.	8d-\	.
.	8A-\J	.
=83	=83	=83
8E-/	8E-\L	2ddd-\
3...ryy	8A-\	.
.	8c\	.
.	8g-\	.
.	8c\	4ccc\
.	8A-\J	.
*v	*v	*
=84	=84
!!linebreak:original
*^	*
8E-/	8E-\L	4ccc\
3...ryy	8A-\	.
.	8c\	4.bb-\
.	8g-\	.
.	8c\	.
.	8A-\J	8aa-\
=85	=85	=85
8Dn/	8D\L	2.fff\
3...ryy	8A-\	.
.	8c-\	.
.	8f\	.
.	8c-\	.
.	8A-\J	.
=86	=86	=86
8Dn/	8D\L	2fff\
3...ryy	8A-\	.
.	8B-\	.
.	8f\	.
.	8B-\	4fff\
.	8A-\J	.
=87	=87	=87
8E-/	8E-\L	2.fff\
3...ryy	8G-\	.
.	8B-\	.
.	8e-\	.
.	8B-\	.
.	8G-\J	.
=88	=88	=88
8GG-/	8GG-\L	4eee-\
3...ryy	8G-\	.
.	8B-\	4ddd-\
.	8e-\	.
.	8B-\	4bb-\
.	8G-\J	.
=89	=89	=89
8AA-/	8AA-\L	2.ccc\
3...ryy	8F\	.
.	8A-\	.
.	8d-\	.
.	8A-\	.
.	8F\J	.
*v	*v	*
=90	=90
!!linebreak:original
*^	*
8AA-/	8AA-\L	4bb-\
3...ryy	8F\	.
.	8A-\	4aa-\
.	8d-\	.
.	8A-\	4ff\
.	8F\J	.
=91	=91	=91
8AA-/	8AA-\L	4bb-\
3...ryy	8G-\	.
.	8A-\	4aa-\
.	8c\	.
.	8A-\	4gg-\
.	8G-\J	.
=92	=92	=92
8AA-/	8AA-\L	2.r
3...ryy	8G-\	.
.	8A-\	.
.	8c\	.
.	8A-\	.
.	8G-\J	.
=93	=93	=93
8D-/	8D-\L	2.een\
3...ryy	8A-\	.
.	8d-\	.
.	8f\	.
.	8d-\	.
.	8B-\J	.
=94	=94	=94
8A-/	8A-\L	2ff\)
3...ryy	8d-\	.
.	8f\	.
.	8a-\	.
.	8f\	([4aa-^\
.	8d-\J	.
=95	=95	=95
*	*	*^
2.G-/	8G-\L	2.aa-/]	2a-\
.	8A-\	.	.
.	8c\	.	.
.	8e-\	.	.
.	8c\	.	[4cc\
.	8A-\J	.	.
*v	*v	*	*
*	*v	*v
=96	=96
!!pagebreak:original
*^	*
2.G-/	8G-\L	4cc\] 4ccc\
.	8A-\	.
.	8c\	4.b-\ 4.bb-\
.	8e-\	.
.	8c\	.
.	8A-\J	8a-\ 8aa-\
=97	=97	=97
2.F/	8F\L	2.a-\ [2.aa-\
.	8A-\	.
.	8d-\	.
.	8f\	.
.	8d-\	.
.	8A-\J	.
=98	=98	=98
8F/	8F\L	2.dd-\ 2.aa-\] 2.ddd-\
3...ryy	8A-\	.
.	8d-\	.
.	8a-\	.
.	8d-\	.
.	8A-\J	.
=99	=99	=99
*	*	*^
8E-/	8E-\L	2dd-\ 2ddd-\	[2.aa-
3...ryy	8A-\	.	.
.	8c\	.	.
.	8g-\	.	.
.	8c\	4cc\ 4ccc\	.
.	8A-\J	.	.
=100	=100	=100	=100
8E-/	8E-\L	4.cc\ 4.ccc\	4.aa-]
3...ryy	8A-\	.	.
.	8c\	.	.
*	*	*v	*v
.	8g-\	8b-\ 8bb-\
.	8c\	4a-\ 4aa-\
.	8A-\J	.
=101	=101	=101
8Dn/	8D\L	2.ff\ 2.aa-\ 2.fff\
3...ryy	8A-\	.
.	8c-\	.
.	8f\	.
.	8c-\	.
.	8A-\J	.
*v	*v	*
=102	=102
!!linebreak:original
*^	*
8Dn/	8D\L	2ff\ 2aa-\ 2fff\
3...ryy	8A-\	.
.	8B-\	.
.	8f\	.
.	8B-\	4ff\ 4aa-\ 4fff\
.	8A-\J	.
=103	=103	=103
8E-/	8E-\L	2.ff\ 2.aa-\ 2.fff\
3...ryy	8G-\	.
.	8B-\	.
.	8e-\	.
.	8B-\	.
.	8G-\J	.
=104	=104	=104
8GG-/	8GG-\L	4ee-\ 4gg-\ 4eee-\
3...ryy	8G-\	.
.	8B-\	4.dd-\ 4.gg-\ 4.ddd-\
.	8e-\	.
.	8B-\	.
.	8G-\J	8b-\ 8gg-\ 8bb-\
=105	=105	=105
8AA-/	8AA-\L	2.cc\ 2.aa-\ 2.ccc\
3...ryy	8F\	.
.	8A-\	.
.	8d-\	.
.	8A-\	.
.	8F\J	.
=106	=106	=106
8AA-/	8AA-\L	4b-\ 4gg-\ 4bb-\
3...ryy	8F\	.
.	8A-\	4a-\ 4ff\ 4aa-\
.	8d-\	.
.	8A-\	4b-\ 4ff\ 4bb-\
.	8F\J	.
=107	=107	=107
8AA-/	8AA-\L	2cc-\ 2ff\ 2ccc-\
3...ryy	8F\	.
.	8A-\	.
.	8dn\	.
.	8A-\	4b-\ 4ff\ 4bb-\
.	8F\J	.
*v	*v	*
=108	=108
!!linebreak:original
*^	*
8AA-/	8AA-\L	[2.cc-\ [2.ff\ [2.ccc-\
3...ryy	8F\	.
.	8A-\	.
.	8dn\	.
.	8A-\	.
.	8F\J	.
=109	=109	=109
8AA-/	8AA-\L	2cc-\] 2ff\] 2ccc-\]
3...ryy	8F\	.
.	8A-\	.
.	8dn\	.
.	8A-\	4b-\ 4ff\ 4bb-\
.	8F\J	.
=110	=110	=110
8AA-/	8AA-\L	4cc-\ 4ff\ 4ccc-\
3...ryy	8F\	.
.	8A-\	4b-\ 4ff\ 4bb-\
.	8dn\	.
.	8A-\	4cc-\ 4ff\ 4ccc-\
.	8F\J	.
=111	=111	=111
8AA-/	8AA-\L	2cc-\ 2gg-\ 2ccc-\
3...ryy	8E-\	.
.	8G-\	.
.	8e-\	.
.	8G-\	4b-\) 4gg-\ 4bb-\
.	8E-\J	.
=112	=112	=112
8AA-/	8AA-\L	([2.bb-\ [2.ggg-\ [2.bbb-\
3...ryy	8E-\	.
.	8G-\	.
.	8e-\	.
.	8G-\	.
.	8E-\J	.
=113	=113	=113
8AA-/	8AA-\L	4.bb-\] 4.ggg-\] 4.bbb-\]
3...ryy	8E-\	.
.	8G-\	.
.	8c\	8cc\ 8gg-\ 8ccc\
.	8G-\	4cc\ 4gg-\ 4ccc\
.	8E-\J	.
*v	*v	*
=114	=114
!!linebreak:original
*^	*
8AA-/	8AA-\L	4.cc\ 4.gg-\ 4.ccc\
3...ryy	8E-\	.
.	8G-\	.
.	8c\	8ff\ 8aa-\ 8fff\
.	8G-\	4ee-\ 4gg-\ 4eee-\
.	8E-\J	.
*v	*v	*
=115	=115
4DD-'/	4dd-'\) 4ff'\ 4ddd-'\
4r	4r
(8AA-/L	4r
8F/J	.
=116	=116
4d-^\)	(8f\L
.	8dd-\J
4r	8aa-\L
.	8ff\J
4r	8ddd-\L
.	8bbb-\J
=117	=117
4AAA-'/	4ccc\) 4aaa-\
4r	4r
(8AA-/L	4r
8E-/J	.
=118	=118
4c^\)	(8g-\L
.	8cc\J
4r	8aa-\L
.	8gg-\J
4r	8ccc\L
.	8aaa-\J
=119	=119
4DD-'/	4ddd-\) 4fff\
4r	4r
(8AA-/L	4r
8F/J	.
=120	=120
4d-^\)	(8f\L
.	8dd-\J
4r	8aa-\L
.	8ff\J
4r	8ddd-\L
.	8bbb-\J
=121	=121
4AAA-'/	4ccc\) 4aaa-\
4r	4r
(8AA-/L	4r
8E-/J	.
=122	=122
!!pagebreak:original
4c^\)	(8g-\L
.	8cc\J
4r	8aa-\L
.	8gg-\J
4r	8ccc\L
.	8aaa-\J
=123	=123
4DDD-'/	4ddd-\) 4fff\
4r	4r
(8AA-/L	4r
8F/J	.
=124	=124
4d-^\)	8f\L
.	8dd-\J
4r	8aa-\L
.	8ff\J
4r	8ddd-\L
.	8aaa-\J
=125	=125
2.r	8ddd-\L
.	8ff\J
.	8aa-\L
.	8dd-\J
.	8f/L
.	8a-/J
=126	=126
2.r	8d-\L
.	8F\J
.	8A-\L
.	8D-\J
.	8FF\L
.	8D-\J
=127	=127
4DDD-'/ 4DD-'/	2.r
4r	.
4r	.
=128	=128
*clefG2	*
2.d-/ 2.dd-/	2.ddd-\ 2.dddd-\
=129	=129
2.r	2.r
!!linebreak:original
=130||	=130||
!!linebreak:original
4r	4r
4r	4r
*clefF4	*
(12AAn/L	(12An/L
12BB-/	12B-/
12D-/J	12d-/J
=131	=131
4F\)	4f/)
4r	4r
(12AAn/L	(12An/L
12BB-/	12B-/
12D-/J	12d-/J
=132	=132
4F\)	4f/)
4r	4r
4r	4r
=133	=133
2.r	2.r
=134	=134
4BBB-'/ 4BB-'/	4B-'/
4r	4r
4r	4r
=135	=135
*clefG2	*
[2.B-/ [2.c/ [2.e-/ [2.g-/ [2.b-/	([2.bb-\ [2.ggg-\ [2.bbb-\
=136	=136
2.B-/] 2.c/] 2.e-/] 2.g-/] 2.b-/]	2.bb-\] 2.ggg-\] 2.bbb-\]
=137	=137
4.B-/ 4.c/ 4.e-/ 4.g-/ 4.b-/	4.ee-\ 4.ccc\ 4.eee-\
8B-/ 8c/ 8e-/ 8g-/ 8b-/	8ff\ 8ccc\ 8fff\
4B-/ 4c/ 4e-/ 4g-/ 4b-/	4gg-\ 4ccc\ 4ggg-\
=138	=138
4B-'/ 4d-'/ 4f'/ 4b-'/	4ff'\) 4ddd-'\ 4fff'\
4r	4r
*clefF4	*
(12AAn/L	(12An/L
12BB-/	12B-/
12D-/J	12d-/J
=139	=139
!!linebreak:original
4F\)	4f/)
4r	4r
(12AAn/L	(12An/L
12BB-/	12B-/
12D-/J	12d-/J
=140	=140
4F\)	4f/)
4r	4r
4r	4r
=141	=141
2.r	2.r
=142	=142
4AAA-'/ 4AA-'/	4A-'/
4r	4r
4r	4r
=143	=143
*clefG2	*
[2.A-/ [2.f/ [2.dd-/	[2.aa-\ [2.fff\ [2.aaa-\
=144	=144
2.A-/] 2.f/] 2.dd-/]	2.aa-\] 2.fff\] 2.aaa-\]
=145	=145
(10.A-/ 10.e-/ 10.g-/ 10.a-/	(10.ee-\ 10.ccc\ 10.eee-\
10.A-/ 10.e-/ 10.g-/ 10.a-/	10.een\ 10.ccc\ 10.eeen\
10.A-/ 10.e-/ 10.g-/ 10.a-/	10.ff\ 10.ccc\ 10.fff\
10.A-/ 10.e-/ 10.g-/ 10.a-/	10.aa-\ 10.ccc\ 10.aaa-\
10.A-/) 10.e-/ 10.g-/ 10.a-/	10.gg-\) 10.ccc\ 10.ggg-\
=146	=146
4d-'/ 4f'/ 4a-'/	4ff'\ 4ddd-'\ 4fff'\
4r	4r
4r	4r
=147	=147
*clefF4	*
2F\ 2c\ 2f\	2an\ 2ff\
4r	4r
=148	=148
2FF/ 2C/ 2F/	2An/ 2f/
4r	4r
=149	=149
([2.FFF/ [2.FF/	2.r
=150	=150
!!linebreak:original
2.FFF/_ 2.FF/_	2.r
=151	=151
!!pagebreak:original
4FFF/] 4FF/]	2.r
4GGG-'/) 4GG-'/	.
4r	.
=152	=152
2.r	2.r
=153	=153
4r	4r
4r	4r
(12AAn/L	(12An/L
12BB-/	12B-/
12D-/J	12d-/J
=154	=154
4F\)	4f/)
4r	4r
(12AAn/L	(12An/L
12BB-/	12B-/
12D-/J	12d-/J
=155	=155
4F\)	4f/)
4r	4r
4r	4r
=156	=156
2.r	2.r
=157	=157
4BBB-'/ 4BB-'/	4B-'/
4r	4r
4r	4r
=158	=158
*clefG2	*
[2.B-/ [2.c/ [2.e-/ [2.g-/ [2.b-/	([2.bb-\ [2.ggg-\ [2.bbb-\
=159	=159
4.B-/] 4.c/] 4.e-/] 4.g-/] 4.b-/]	4.bb-\] 4.ggg-\] 4.bbb-\]
8B-/ 8c/ 8e-/ 8g-/ 8b-/	8ee-\ 8ccc\ 8eee-\
4B-/ 4c/ 4e-/ 4g-/ 4b-/	4ee-\ 4ccc\ 4eee-\
=160	=160
4.B-/ 4.c/ 4.e-/ 4.g-/ 4.b-/	4.ee-\ 4.ccc\ 4.eee-\
8B-/ 8c/ 8e-/ 8g-/ 8b-/	8ff\ 8ccc\ 8fff\
4B-/ 4c/ 4e-/ 4g-/ 4b-/	4gg-\ 4ccc\ 4ggg-\
=161	=161
!!linebreak:original
4B-'/ 4d-'/ 4f'/ 4b-'/	4ff'\) 4ddd-'\ 4fff'\
4r	4r
*clefF4	*
(12AAn/L	(12An/L
12BB-/	12B-/
12D-/J	12d-/J
=162	=162
4F\)	4f/)
4r	4r
(12AAn/L	(12An/L
12BB-/	12B-/
12D-/J	12d-/J
=163	=163
4F\)	4f/)
4r	4r
4r	4r
=164	=164
2.r	2.r
=165	=165
*	*clefF4
4CCC'/ 4CC'/	4C'/
4r	4r
4r	4r
=166	=166
*clefG2	*clefG2
[2.c/ [2.f/ [2.a-/ [2.cc/	([2.ccc\ [2.aaa-\ [2.cccc\
=167	=167
2.c/] 2.f/] 2.a-/] 2.cc/]	2.ccc\] 2.aaa-\] 2.cccc\]
=168	=168
(8.c/ 8.en/ 8.b-/ 8.cc/	(8.ddd-\ 8.gggn\ 8.dddd-\
8.c/ 8.e/ 8.b-/ 8.cc/	8.ccc\ 8.ggg\ 8.cccc\
8.c/ 8.e/ 8.b-/ 8.cc/	8.ff\ 8.ccc\ 8.fff\
8.c/) 8.e/ 8.b-/ 8.cc/	8.ggn\) 8.ccc\ 8.ggg\
=169	=169
4f/ 4a-/ 4cc/	4aa-'\) 4ccc'\ 4aaa-'\
4r	4r
4r	4r
=170	=170
*clefF4	*
2F\ 2c\ 2f\	2a-\ 2cc\ 2ff\ 2aa-\
4r	4r
=171	=171
!!linebreak:original
2FF/ 2C/ 2F/	2A-/ 2c/ 2f/ 2a-/
4r	4r
=172	=172
!!linebreak:original
([2.EEEn/ [2.EEn/	2.r
=173	=173
2.EEE/] 2.EE/]	2.r
=174	=174
*^	*
2.FF/	2.FFF\	2.r
*v	*v	*
=175	=175
2.r	16DD
.	16EE-
.	16FF
.	16EE-
.	16FF
.	16EE-
.	16FF
.	16EE-
.	16FF
.	16EE-
.	16FF
.	16EE-
=176	=176
2.r	16FF
.	16EE-
.	16FF
.	16EE-
.	16FF
.	16EE-
.	16FF
.	16EE-
.	16FF
.	16EE-
.	16DDn/LL
.	16EE-/JJ
=177	=177
4DDD-'/ 4DD-'/	([2.ffff\
4r	.
(4AA-\ 4A-\	.
=178	=178
!!pagebreak:original
4F\) 4d-\	4ffff\]
4r	8eeee-\L
.	8dddd-\
(4AA-\ 4A-\	8aaa-\
.	8fff\J
=179	=179
4F\) 4d-\	8eee-\L
.	8ddd-\
4r	8aa-\
.	8ff\
4r	8ee-\
.	8dd-\J
=180	=180
2.r	4a-/)
.	4r
.	4r
=181	=181
4AAA-'/ 4AA-'/	(8cc\L
.	8dd-\J
4r	8ee-\L
.	8ff\J
4r	8gg-\L
.	8aa-\J
=182	=182
(4Gn\ 4c\ 4g-\	8bb--\)
.	8r
4A-\) 4c\ 4g-\	4r
4A-\ 4c\ 4g-\	4r
=183	=183
!!linebreak:original
2.r	(8bb--\L
.	8aa-\J
.	8ggn\L
.	8gg-\J
.	8ff\L
.	8ff-\J
=184	=184
(4B--\ 4c\ 4g-\	8ee-\)
.	8r
4A-\) 4c\ 4g-\	4r
4A-\ 4c\ 4g-\	4r
=185	=185
4DDD-'/ 4DD-'/	([2.ffff\
4r	.
(4AA-\ 4A-\	.
=186	=186
4F\) 4d-\	4ffff\]
4r	8eeee-\L
.	8dddd-\
(4AA-\ 4A-\	8aaa-\
.	8fff\J
=187	=187
4F\) 4d-\	8eee-\L
.	8ddd-\
4r	8aa-\
.	8ff\
4r	8ee-\
.	8dd-\J
=188	=188
2.r	4a-/)
.	4r
.	4r
=189	=189
(2.AA-\ 2.E-\ 2.G-\	(8cc\L
.	8dd-\J
.	8ee-\L
.	8ff\J
.	8gg-\L
.	8aa-\J
=190	=190
!!linebreak:original
*clefG2	*
8c/L	8bb--\)
8d-/J	8r
8e-/L	4r
8f/J	.
8g-/L	4r
8a-/J	.
=191	=191
8b--\)	(8bb--\L
8r	8aa-\J
4r	8ggn\L
.	8gg-\J
4r	8ff\L
.	8ff-\J
=192	=192
*clefF4	*
(8B--\L	8ee-\)
8A-\J	8r
8Gn\L	4r
8G-\J	.
8F\L	4r
8E-\J	.
=193	=193
*^	*^
8D-/)	8D-\L	([2.ff/	[2.cc-\
3...ryy	8A-\	.	.
.	8d-\	.	.
.	8f\	.	.
.	8d-\	.	.
.	8A-\J	.	.
=194	=194	=194	=194
8D-/	8D-\L	4ff/]	2.cc-\]
3...ryy	8c-\	.	.
.	8d-\	4.ee-/	.
.	8f\	.	.
.	8d-\	.	.
.	8c-\J	8dd-/	.
*v	*v	*	*
*	*v	*v
=195	=195
!!linebreak:original
*^	*^
8G-/	8G-\L	2.dd-/	2.cc-\
3...ryy	8c-\	.	.
.	8d-\	.	.
.	8g-\	.	.
.	8d-\	.	.
.	8c-\J	.	.
*v	*v	*	*
*	*v	*v
=196	=196
!!pagebreak:original
*^	*^
8D-/	8D-\L	[2.gg-/	2.b-\
3...ryy	8B-\	.	.
.	8d-\	.	.
.	8g-\	.	.
.	8d-\	.	.
.	8B-\J	.	.
=197	=197	=197	=197
8A-/	8A-\L	2gg-/]	[2.cc-\
3...ryy	8c-\	.	.
.	8d-\	.	.
.	8a-\	.	.
.	8d-\	4ff/	.
.	8c-\J	.	.
=198	=198	=198	=198
8D-/	8D-\L	4ff/	2.cc-\]
3...ryy	8c-\	.	.
.	8d-\	4ee-/	.
.	8f\	.	.
.	8d-\	4dd-/	.
.	8c-\J	.	.
=199	=199	=199	=199
8G-/	8G-\L	2.bb-/	2.b-\ 2.dd-\
3...ryy	8B-\	.	.
.	8d-\	.	.
.	8g-\	.	.
.	8d-\	.	.
.	8B-\J	.	.
=200	=200	=200	=200
8F-/	8F-\L	2bb-/	2.a-\ 2.dd-\
3...ryy	8B-\	.	.
.	8d-\	.	.
.	8a-\	.	.
.	8d-\	4bb-/	.
.	8B-\J	.	.
*v	*v	*	*
*	*v	*v
=201	=201
!!linebreak:original
*^	*
8E-/	8E-\L	2.r
3...ryy	8B-\	.
.	8d-\	.
.	8gn\	.
.	8d-\	.
.	8B-\J	.
*v	*v	*
=202	=202
!!linebreak:original
*^	*
8Gn/	8G\L	2.r
3...ryy	8d-\	.
.	8e-\	.
.	8b-\	.
.	8e-\	.
.	8d-\J	.
*	*	*^
=203	=203	=203	=203
8A-/	8A-\L	2.ee-/	2.dd-\
3...ryy	8d-\	.	.
.	8e-\	.	.
.	8a-\	.	.
.	8e-\	.	.
.	8d-\J	.	.
=204	=204	=204	=204
8E-/	8E-\L	[2.aa-^/	2.cc\
3...ryy	8c\	.	.
.	8e-\	.	.
.	8a-\	.	.
.	8e-\	.	.
.	8c\J	.	.
=205	=205	=205	=205
8B-/	8B-\L	4aa-/]	[2.dd-\
3...ryy	8d-\	.	.
.	8e-\	4ggn/	.
.	8b-\	.	.
.	8e-\	4ff/	.
.	8d-\J	.	.
=206	=206	=206	=206
8E-/	8E-\L	4ggn/	2.dd-\]
3...ryy	8d-\	.	.
.	8e-\	4.ff/	.
.	8gn\	.	.
.	8e-\	.	.
.	8d-\J	8ee-/	.
*v	*v	*	*
*	*v	*v
=207	=207
!!linebreak:original
*^	*^
8A-/	8A-\L	2.ccc/	[2.cc\
3...ryy	8c\	.	.
.	8e-\	.	.
.	8a-\	.	.
.	8e-\	.	.
.	8c\J	.	.
*v	*v	*	*
*	*v	*v
=208	=208
!!pagebreak:original
*^	*^
2.Gn~/	8G\L	2ccc/	2.cc\]
.	8A-\	.	.
.	8c\	.	.
.	8e-\	.	.
.	8c\	4ccc/	.
.	8A-\J	.	.
*	*	*v	*v
=209	=209	=209
2.G-~/	8G-\L	[2.ccc\
.	8A-\	.
.	8c\	.
.	8e-\	.
.	8c\	.
.	8A-\J	.
=210	=210	=210
2.G-/	8G-\L	4ccc\]
.	8A-\	.
.	8c\	4.bb-\
.	8e-\	.
.	8c\	.
.	8A-\J	8aa-\
=211	=211	=211
2.F/	8F\L	2.aa-\
.	8A-\	.
.	8d-\	.
.	8f\	.
.	8d-\	.
.	8A-\J	.
=212	=212	=212
8F/	8F\L	2.ddd-\
3...ryy	8A-\	.
.	8d-\	.
.	8a-\	.
.	8d-\	.
.	8A-\J	.
=213	=213	=213
8E-/	8E-\L	2ddd-\
3...ryy	8A-\	.
.	8c\	.
.	8g-\	.
.	8c\	4ccc\
.	8A-\J	.
*v	*v	*
=214	=214
!!linebreak:original
*^	*
8E-/	8E-\L	4ccc\
3...ryy	8A-\	.
.	8c\	4.bb-\
.	8g-\	.
.	8c\	.
.	8A-\J	8aa-\
*v	*v	*
=215	=215
!!linebreak:original
*^	*
8Dn/	8D\L	2.fff\
3...ryy	8A-\	.
.	8c-\	.
.	8f\	.
.	8c-\	.
.	8A-\J	.
=216	=216	=216
8Dn/	8D\L	2fff\
3...ryy	8A-\	.
.	8B-\	.
.	8f\	.
.	8B-\	4fff\
.	8A-\J	.
=217	=217	=217
8E-/	8E-\L	2.fff\
3...ryy	8G-\	.
.	8B-\	.
.	8e-\	.
.	8B-\	.
.	8G-\J	.
=218	=218	=218
8GG-/	8GG-\L	4eee-\
3...ryy	8G-\	.
.	8B-\	4ddd-\
.	8e-\	.
.	8B-\	4bb-\
.	8G-\J	.
=219	=219	=219
8AA-/	8AA-\L	2.ccc\
3...ryy	8F\	.
.	8A-\	.
.	8d-\	.
.	8A-\	.
.	8F\J	.
=220	=220	=220
8AA-/	8AA-\L	4bb-\
3...ryy	8F\	.
.	8A-\	4aa-\
.	8d-\	.
.	8A-\	4ff\
.	8F\J	.
*v	*v	*
=221	=221
!!linebreak:original
*^	*
8AA-/	8AA-\L	4bb-\
3...ryy	8G-\	.
.	8A-\	4aa-\
.	8c\	.
.	8A-\	4gg-\
.	8G-\J	.
*v	*v	*
=222	=222
!!pagebreak:original
*^	*
8AA-/	8AA-\L	4gg-\
3...ryy	8G-\	.
.	8A-\	4.ff\
.	8c\	.
.	8A-\	.
.	8G-\J	8een\
=223	=223	=223
8D-/	8D-\L	2.een\
3...ryy	8A-\	.
.	8d-\	.
.	8f\	.
.	8d-\	.
.	8B-\J	.
=224	=224	=224
8A-/	8A-\L	2ff\)
3...ryy	8d-\	.
.	8f\	.
.	8a-\	.
.	8f\	([4aa-^\
.	8d-\J	.
=225	=225	=225
*	*	*^
2.G-/	8G-\L	2.aa-/]	2a-\
.	8A-\	.	.
.	8c\	.	.
.	8e-\	.	.
.	8c\	.	[4cc\
.	8A-\J	.	.
*	*	*v	*v
=226	=226	=226
2.G-/	8G-\L	4cc\] 4ccc\
.	8A-\	.
.	8c\	4.b-\ 4.bb-\
.	8e-\	.
.	8c\	.
.	8A-\J	8a-\ 8aa-\
=227	=227	=227
2.F/	8F\L	2.a-\ [2.aa-\
.	8A-\	.
.	8d-\	.
.	8f\	.
.	8d-\	.
.	8A-\J	.
*v	*v	*
=228	=228
!!linebreak:original
*^	*
8F/	8F\L	2.dd-\ 2.aa-\] 2.ddd-\
3...ryy	8A-\	.
.	8d-\	.
.	8a-\	.
.	8d-\	.
.	8A-\J	.
*v	*v	*
=229	=229
!!linebreak:original
*^	*^
8E-/	8E-\L	4.dd-\ 4.ddd-\	2gg-/ 2aa-/
3...ryy	8A-\	.	.
.	8c\	.	.
.	8g-\	8cc\ 8ccc\	.
*	*	*v	*v
.	8c\	4cc\ 4gg-\ 4aa-\ 4ccc\
.	8A-\J	.
=230	=230	=230
8E-/	8E-\L	4.cc\ 4.gg-\ 4.aa-\ 4.ccc\
3...ryy	8A-\	.
.	8c\	.
.	8g-\	8b-\ 8gg-\ 8bb-\
.	8c\	4a-\ 4gg-\ 4aa-\
.	8A-\J	.
=231	=231	=231
8Dn/	8D\L	2.ff\ 2.aa-\ 2.fff\
3...ryy	8A-\	.
.	8c-\	.
.	8f\	.
.	8c-\	.
.	8A-\J	.
=232	=232	=232
8Dn/	8D\L	2ff\ 2aa-\ 2fff\
3...ryy	8A-\	.
.	8B-\	.
.	8f\	.
.	8B-\	4ff\ 4aa-\ 4fff\
.	8A-\J	.
=233	=233	=233
8E-/	8E-\L	2.ff\ 2.aa-\ 2.fff\
3...ryy	8G-\	.
.	8B-\	.
.	8e-\	.
.	8B-\	.
.	8G-\J	.
=234	=234	=234
8GG-/	8GG-\L	4ee-\ 4gg-\ 4eee-\
3...ryy	8G-\	.
.	8B-\	4.dd-\ 4.gg-\ 4.ddd-\
.	8e-\	.
.	8B-\	.
.	8G-\J	8b-\ 8gg-\ 8bb-\
*v	*v	*
=235	=235
!!linebreak:original
*^	*
8AA-/	8AA-\L	2.cc\ 2.aa-\ 2.ccc\
3...ryy	8F\	.
.	8A-\	.
.	8d-\	.
.	8A-\	.
.	8F\J	.
=236	=236	=236
8AA-/	8AA-\L	4b-\ 4gg-\ 4bb-\
3...ryy	8F\	.
.	8A-\	4a-\ 4ff\ 4aa-\
.	8d-\	.
.	8A-\	4b-\ 4ff\ 4bb-\
.	8F\J	.
=237	=237	=237
8AA-/	8AA-\L	2cc-\ 2ff\ 2ccc-\
3...ryy	8F\	.
.	8A-\	.
.	8dn\	.
.	8A-\	4b-\ 4ff\ 4bb-\
.	8F\J	.
=238	=238	=238
8AA-/	8AA-\L	[2.cc-\ [2.ff\ [2.ccc-\
3...ryy	8F\	.
.	8A-\	.
.	8dn\	.
.	8A-\	.
.	8F\J	.
=239	=239	=239
8AA-/	8AA-\L	2cc-\] 2ff\] 2ccc-\]
3...ryy	8F\	.
.	8A-\	.
.	8dn\	.
.	8A-\	4b-\ 4ff\ 4bb-\
.	8F\J	.
=240	=240	=240
8AA-/	8AA-\L	4cc-\ 4ff\ 4ccc-\
3...ryy	8F\	.
.	8A-\	4b-\ 4ff\ 4bb-\
.	8dn\	.
.	8A-\	4cc-\ 4ff\ 4ccc-\
.	8F\J	.
*v	*v	*
=241	=241
!!pagebreak:original
*^	*
8AA-/	8AA-\L	2cc-\ 2gg-\ 2ccc-\
3...ryy	8E-\	.
.	8G-\	.
.	8e-\	.
.	8G-\	4b-\) 4gg-\ 4bb-\
.	8E-\J	.
=242	=242	=242
8AA-/	8AA-\L	([2.bb-\ [2.ggg-\ [2.bbb-\
3...ryy	8E-\	.
.	8G-\	.
.	8e-\	.
.	8G-\	.
.	8E-\J	.
=243	=243	=243
8AA-/	8AA-\L	4.bb-\] 4.ggg-\] 4.bbb-\]
3...ryy	8E-\	.
.	8G-\	.
.	8c\	8cc\ 8gg-\ 8ccc\
.	8G-\	4cc\ 4gg-\ 4ccc\
.	8E-\J	.
=244	=244	=244
8AA-/	8AA-\L	4.cc\ 4.gg-\ 4.ccc\
3...ryy	8E-\	.
.	8G-\	.
.	8c\	8ff\ 8aa-\ 8fff\
.	8G-\	4ee-\ 4gg-\ 4eee-\
.	8E-\J	.
*v	*v	*
=245	=245
4DD-'/	4dd-'\) 4ff'\ 4ddd-'\
4r	4r
(8AA-/L	4r
8F/J	.
=246	=246
4d-^\)	(8f\L
.	8dd-\J
4r	8aa-\L
.	8ff\J
4r	8ddd-\L
.	8bbb-\J
=247	=247
4AAA-'/	4ccc\) 4aaa-\
4r	4r
(8AA-/L	4r
8E-/J	.
=248	=248
!!linebreak:original
4c^\)	(8g-\L
.	8cc\J
4r	8aa-\L
.	8gg-\J
4r	8ccc\L
.	8aaa-\J
=249	=249
!!linebreak:original
4DD-'/	4ddd-\) 4fff\
4r	4r
(8AA-/L	4r
8F/J	.
=250	=250
4d-^\)	(8f\L
.	8dd-\J
4r	8aa-\L
.	8ff\J
4r	8ddd-\L
.	8bbb-\J
=251	=251
4AAA-'/	4ccc\) 4aaa-\
4r	4r
(8AA-/L	4r
8E-/J	.
=252	=252
4c^\)	(8g-\L
.	8cc\J
4r	8aa-\L
.	8gg-\J
4r	8ccc\L
.	8aaa-\J
=253	=253
4DDD-'/	4ddd-\) 4fff\
4r	4r
(8AA-/L	4r
8F/J	.
=254	=254
4d-^\)	8f\L
.	8dd-\J
4r	8aa-\L
.	8ff\J
4r	8ddd-\L
.	8aaa-\J
=255	=255
2.r	8ddd-\L
.	8ff\J
.	8aa-\L
.	8dd-\J
.	8f/L
.	8a-/J
=256	=256
2.r	8d-\L
.	8F\J
.	8A-\L
.	8D-\J
.	8FF\L
.	8D-\J
=257	=257
!!linebreak:original
4DDD-'/ 4DD-'/	2.r
4r	.
4r	.
=258	=258
!!pagebreak:original
*clefG2	*
2.d-/ 2.dd-/	2.ddd-\ 2.dddd-\
=259	=259
2.r	2.r
=260||	=260||
*clefF4	*k[f#c#g#]
*k[f#c#g#]	*
*^	*^
2.E/	2.AAA\ [2.AA\	(2.e/	[2.c#
=261	=261	=261	=261
[2.F#/	[2.DD\ 2.AA\_	[2.f#/	2.c#_
=262	=262	=262	=262
2.F#/_	2.DD\_ 2.AA\_	2.f#/_	4c#\]
.	.	.	4B\
.	.	.	4c#\
=263	=263	=263	=263
2.F#/]	2.DD\] 2.AA\]	2.f#/]	4e\
.	.	.	4d\
.	.	.	4c#\)
=264	=264	=264	=264
2.E/	2.AAA\ [2.AA\	(2.e/	[2.c#
=265	=265	=265	=265
[2.F#/	[2.DD\ 2.AA\_	[2.f#/	2.c#_
=266	=266	=266	=266
2.F#/_	2.DD\_ 2.AA\_	2.f#/_	4c#\]
.	.	.	4B\
.	.	.	4c#\
=267	=267	=267	=267
2.F#/]	2.DD\] 2.AA\]	2.f#/]	4e\
.	.	.	4.d\
.	.	.	8c#\
*	*	*v	*v
=268	=268	=268
*	*	*^
*	*	*	*^
[2.D/	[2.EE/	[2.e/	2.c#\	[2.G#/
*v	*v	*	*	*
*	*v	*v	*v
=269	=269
!!linebreak:original
*^	*^
*	*	*	*^
(2D/]	2EE\]	2.e/]	2B\	2G#\]
*	*	*	*v	*v
4C#/	[4AA\	.	4A\
*	*	*v	*v
=270	=270	=270
[2.E/)	2.AA\_	[2.c#/
=271	=271	=271
2.E/]	2.AA\]	2.c#/])
*v	*v	*
=272	=272
!!linebreak:original
4r	(2.cc#\
4r	.
(4E\ 4Gn\ 4A#\	.
=273	=273
.	32bq/LLL
.	32cc#q/JJJ
4D\) 4F#\ 4B\	4.b\
4r	.
.	8a/
(4F#\ 4An\ 4d\	4b\
=274	=274
2E#\ 2G#\ 2c#\	4.cc#\
.	8dd\
4En\ 4Gn\ 4A#\	4cc#\
=275	=275
.	32bq/LLL
.	32cc#q/JJJ
4D\) 4F#\ 4B\	4.b\
4r	.
.	8a/
4F#\ 4An\ 4d\	4b\
=276	=276
4C#\ 4G#\ 4e#\	(8cc#/L)
.	8c#/J
4r	8cc#/L
.	8g#/J
4r	8cc#/L
.	8g#/J
=277	=277
4CC#'/	8gg#\L
.	8cc#\J
4r	8gg#\L
.	8cc#\J
4r	8ccc#\L
.	8gg#\J
=278	=278
2.r	8ccc#\L
.	8gg#\J
.	8ggg#\L
.	8ccc#\J
.	8ggg#\L
.	8ccc#\J
=279	=279
2.r	8cccc#\)
.	8r
.	4r
.	4r;
=280	=280
!!linebreak:original
*^	*^
2.E/	2.AAA\ [2.AA\	(2.e/	[2.c#
=281	=281	=281	=281
[2.F#/	[2.DD\ 2.AA\_	[2.f#/	2.c#_
=282	=282	=282	=282
2.F#/_	2.DD\_ 2.AA\_	2.f#/_	4c#\]
.	.	.	4B\
.	.	.	4c#\
=283	=283	=283	=283
2.F#/]	2.DD\] 2.AA\]	2.f#/]	4e\
.	.	.	4d\
.	.	.	4c#\)
=284	=284	=284	=284
2.E/	2.AAA\ [2.AA\	(2.e/	[2.c#
=285	=285	=285	=285
[2.F#/	[2.DD\ 2.AA\_	[2.f#/	2.c#_
=286	=286	=286	=286
2.F#/_	2.DD\_ 2.AA\_	2.f#/_	4c#\]
.	.	.	4B\
.	.	.	4c#\
=287	=287	=287	=287
2.F#/_	2.DD\_ 2.AA\_	2.f#/]	4e\
.	.	.	4.d\
.	.	.	8c#\
=288	=288	=288	=288
2.F#/]	2.DD\] 2.AA\]	2.r	2.r
*v	*v	*	*
=289	=289	=289
*^	*	*
*	*^	*	*
[2.G#/	2.E\	[2.EE\	[2.e/	2.c#\
*v	*v	*v	*	*
=290	=290	=290
*^	*	*
*	*^	*	*
2G#/]	2D\	2EE\]	2.e/]	2B\
4ryy	4C#/	[4AA\	.	4A\
*v	*v	*v	*	*
*	*v	*v
=291	=291
*^	*
[2.E/	[2.AA\	[2.c#/
=292	=292	=292
2.E/]	2.AA\]	2.c#/])
*v	*v	*
=293	=293
!!pagebreak:original
2.r	2.r
=294	=294
2.r	([2.cc#\
=295	=295
2.r	2.cc#\_
=296	=296
2.r	8cc#\L]
.	8dd#\
.	8ff#\
.	8ee\
.	8cc#\
.	8a\J
=297	=297
*clefG2	*
.	16g#q/LL)
.	(16g#q/JJ
4r	(2.gg#\)
4r	.
(4Bn/ 4d/ 4e#/	.
=298	=298
.	32ff#q/LLL
.	32gg#q/JJJ
4A/) 4c#/ 4f#/	4.ff#\
4r	.
.	8ee\
(4c#/ 4en/ 4a/	4ff#\
=299	=299
2B#/ 2d#/ 2g#/	4.gg#\
.	8aa\
4Bn/ 4dn/ 4e#/	4gg#\
=300	=300
.	32ff#q/LLL
.	32gg#q/JJJ
4A/) 4c#/ 4f#/	4.ff#\
4r	.
.	8ee\
(4c#/ 4en/ 4a/	4ff#\
=301	=301
4G#/) 4d#/ 4b#/	[2.gg#\
4r	.
4r	.
=302	=302
!!linebreak:original
*clefF4	*
4GG#'/	4gg#\_)
4r	(8gg#\L
.	8g#\
4r	8gg#\
.	8dd#\J
=303	=303
2.r	8gg#\L
.	8dd#\J
.	8ddd#\L
.	8gg#\J
.	8ddd#\L
.	8gg#\J
=304	=304
2.r	8ggg#'\)
.	8r;
.	(4gg#/
.	4ff#/
=305	=305
*^	*^
4r	2.C#\	[2.ee/	4r
4e/	.	.	(8f##\L
.	.	.	8g#\J
[4G#/	.	.	12b\L
.	.	.	12a\
.	.	.	12g#\J)
=306	=306	=306	=306
4G#/]	2.D#\ 2.F#\	4ee/]	[2.g#\
4B#/	.	4ee/	.
[4G#/	.	4dd#/	.
=307	=307	=307	=307
4G#/]	2.E\	4cc#/	4g#\]
4c#/	.	4r	(8f##\L
.	.	.	8g#\J
[4G#/	.	4r	12b\L
.	.	.	12a\
.	.	.	12g#\J)
=308	=308	=308	=308
4G#/]	2.BB#\	4r	[2.g#\
4d#/	.	4gg#/	.
[4G#/	.	4ff#/	.
*v	*v	*	*
*	*v	*v
=309	=309
!!linebreak:original
*^	*^
4G#/]	2.C#\	[2.ee/	4g#\]
4e/	.	.	(8f##\L
.	.	.	8g#\J
[4G#/	.	.	12b\L
.	.	.	12a\
.	.	.	12g#\J)
*v	*v	*	*
*	*v	*v
=310	=310
!!pagebreak:original
*^	*^
4G#/]	2.D#\ 2.F#\	4ee/]	2.g#\
4B#/	.	4ee/	.
[4G#/	.	4dd#/	.
*	*	*v	*v
=311	=311	=311
4G#/]	2.E\	4cc#\)
4c#/	.	(8b#\L
.	.	8cc#\J
4G#/	.	12ee\L
.	.	12ddn\
.	.	12cc#\J)
=312	=312	=312
*	*	*^
4Bn/	2.E#\	4r	[2.cc#\
4g#/	.	(4ccc#/	.
[4c#/	.	4bb/	.
=313	=313	=313	=313
4c#/]	2.F#\ 2.A\	[2.aa/	4cc#\]
4f#/	.	.	(8b#\L
.	.	.	8cc#\J
[4c#/	.	.	12ee\L
.	.	.	12dd\
.	.	.	12cc#\J)
=314	=314	=314	=314
4c#/]	2.G#\ 2.B\	4aa/]	[2.cc#\
4e#/	.	4aa/	.
[4c#/	.	4gg#/	.
=315	=315	=315	=315
4c#/]	2.A\	4ff#/)	4cc#\]
4f#/	.	4r	(8b#\L
.	.	.	8cc#\J
[4c#/	.	4r	12ee\L
.	.	.	12dd\
.	.	.	12cc#\J)
=316	=316	=316	=316
4c#/]	2.E#\	4r	[2.cc#\
4g#/	.	(4ccc#/	.
[4c#/	.	4bb/	.
*v	*v	*	*
*	*v	*v
=317	=317
!!linebreak:original
*^	*^
4c#/]	2.F#\ 2.A\	[2.aa/	4cc#\]
4a/	.	.	(8b#\L
.	.	.	8cc#\J
[4c#/	.	.	12ee\L
.	.	.	12dd\
.	.	.	12cc#\J)
*v	*v	*	*
*	*v	*v
=318	=318
!!linebreak:original
*^	*^
4c#/]	2.G#\ 2.B\	4aa/]	[2.cc#\
4e#/	.	4aa/	.
[4c#/	.	4gg#/	.
=319	=319	=319	=319
4c#/]	2.A\	[2.ff#/	4cc#\]
4f#/	.	.	(8b#\L
.	.	.	8cc#\J
4c#/	.	.	12ee\L
.	.	.	12dd\
.	.	.	12cc#\J)
*v	*v	*	*
=320	=320	=320
4AA'/	4ff#/]	2.cc#\
(4c#\	4gg#/	.
4F#\)	4aa/	.
=321	=321	=321
*^	*	*
2.D#/	4GG#\	4gg#/)	4r
.	4B#\	4r	(8f##\L
.	.	.	8g#\J
.	4F#\	4r	12bn\L
.	.	.	12a\
.	.	.	12g#\J)
=322	=322	=322	=322
2.E/	4E\	4r	[2.g#\
.	4c#\	(4ff#/	.
.	4G#\	4ee/	.
=323	=323	=323	=323
2.F#/	4GG#\	[2.dd#/	4g#\]
.	4B#\	.	(8f##\L
.	.	.	8g#\J
.	[4G#\	.	12bn\L
.	.	.	12a\
.	.	.	12g#\J)
=324	=324	=324	=324
2.E/	4G#\]	4dd#/]	[2.g#\
.	4c#\	4dd#/	.
.	4G#\	4cc#/	.
*v	*v	*	*
*	*v	*v
=325	=325
!!pagebreak:original
*^	*^
2.D#/	4GG#\	4b#/)	4g#\]
.	4B#\	4r	(8f##\L
.	.	.	8g#\J
.	[4G#\	4r	12bn\L
.	.	.	12a\
.	.	.	12g#\J)
=326	=326	=326	=326
2.E/	4G#\]	4r	(2.g#\
.	4c#\	(4ff#/	.
.	4G#\	4ee/	.
*v	*v	*	*
=327	=327	=327
2.r	4dd#/)	4a\)
*	*v	*v
.	(8a#/L
.	8b/J
.	12dd#\L
.	12cc#\
.	12b\J)
=328	=328
*^	*^
*	*^	*	*
2.BB\]) 2.d#\	2.F#]	2.A]	4r	2.b\
.	.	.	(4ee/	.
.	.	.	4ff#/)	.
*v	*v	*v	*	*
*	*v	*v
=329	=329
*^	*
4r	(2.E\	(8g#\L
.	.	8b\J
(4B/ 4e/	.	8ee\L
.	.	8gg#\J
4G#/)	.	8ff#\L
.	.	8ee\J
=330	=330	=330
4r	2.D#\	8gg#\L
.	.	8bb\J
(4B/ 4e/	.	8eee\L
.	.	8ggg#\J
4G#/)	.	8fff#\L
.	.	8eee\J
=331	=331	=331
4r	4C#\)	8bb\L
.	.	8gg#\J
*v	*v	*
(4B/ 4e/	8ff#\L
.	8ee\J
4G#/)	8b/L
.	8g#/J
=332	=332
!!linebreak:original
(2.BB/	8f#/L
.	8e/
.	8B/
.	8g#/
.	8f#/
.	8e/J
=333	=333
4AA'/)	8c#/L
.	8e/J
(4c#\ 4e\	8f#/L
.	8a/J
4F#\)	8cc#\L
.	8ee\J
=334	=334
4FF#'/	8ff#\L
.	8aa\J
(4c#\ 4e\	8ccc#\L
.	8eee\J
4F#\)	8fff#\L
.	8aaa\J
=335	=335
4BB'/	8ggg#\L
.	8fff#\J
*^	*
[2B/ [2d#/	4r	8ddd#\L
.	.	8aa\J
.	(4F#\	8gg#\L
.	.	8ff#\J
=336	=336	=336
2.B/] 2.d#/]	4G#\	8dd#\L
.	.	8b\J
.	4F#\	8dd#\L
.	.	8cc#\J
.	4G#\)	8b/L
.	.	8a/J)
=337	=337	=337
4r	(2.E\	(8g#\L
.	.	8b\J
(4B/ 4e/	.	8ee\L
.	.	8gg#\J
4G#/)	.	8ff#\L
.	.	8ee\J
*v	*v	*
=338	=338
!!linebreak:original
*^	*
4r	2.D#\	8gg#\L
.	.	8bb\J
(4B/ 4e/	.	8eee\L
.	.	8ggg#\J
4G#/)	.	8fff#\L
.	.	8eee\J
*v	*v	*
=339	=339
!!linebreak:original
*^	*
4r	4C#\)	8bb\L
.	.	8gg#\J
*v	*v	*
(4B/ 4e/	8ff#\L
.	8ee\J
4G#/)	8b/L
.	8g#/J
=340	=340
(2.BB/	8f#/L
.	8e/
.	8B/
.	8g#/
.	8f#/
.	8e/J
=341	=341
4AA'/)	8c#/L
.	8e/J
(4c#\ 4e\	8f#/L
.	8a/J
4F#\)	8cc#\L
.	8ee\J
=342	=342
4FF#'/	8ff#\L
.	8aa\J
(4c#\ 4e\	8ccc#\L
.	8eee\J
4F#\)	8fff#\L
.	8aaa\J
=343	=343
4BB'/	8ggg#\L
.	8fff#\J
*^	*
[2B/ [2d#/	4r	8ddd#\L
.	.	8aa\J
.	(4F#\	8gg#\L
.	.	8ff#\J
=344	=344	=344
2.B/] 2.d#/]	4G#\	8dd#\L
.	.	8b\J
.	4F#\	8dd#\L
.	.	8cc#\J
.	4G#\)	8b/L
.	.	8a/J)
=345	=345	=345
4r	2.E\	(8g#\L
.	.	8b\J
(4B/ 4e/	.	8ee\L
.	.	8gg#\J
4G#/)	.	8ff#\L
.	.	8ee\J
*v	*v	*
=346	=346
!!pagebreak:original
4BB'/	8gg#\L
.	8bb\J
(4B\ 4e\	8eee\L
.	8ggg#\J
4G#\)	8fff#\L
.	8eee\J
=347	=347
(4AA\ 4A\	8cccn\L
.	8aa\J
2Cn\) 2cn\	8ff#\L
.	8ee\J
.	8ccn\L
.	8a\J
=348	=348
2.r	8f#\L
.	8e\J
.	8cn\L
.	8A\J
.	8F#\L
.	8E\J)
=349	=349
*^	*
4r	2.EE\	8G#/L
.	.	8B/J
(4E/	.	8e/L
.	.	8g#/J
4BB/)	.	8f#/L
.	.	8e/J
*v	*v	*
=350	=350
4BBB/	8g#\L
.	8b\J
(4E\	8ee\L
.	8gg#\J
4BB/)	8ff#\L
.	8ee\J
=351	=351
(4AAA/ 4AA/	8ccn\L
.	8a\J
2CCn/) 2Cn/	8f#/L
.	8e/J
.	8cn\L
.	8A\J
=352	=352
!!linebreak:original
*^	*
8F#\L	2.r	2.r
8E\J	.	.
8Cn\L	.	.
8AA\J	.	.
8FF#\L	.	.
8EE\J	.	.
*v	*v	*
=353	=353
!!linebreak:original
4EEE'\	4r
4r	8BB/L
.	8E/
4r	8A/
.	8G#/J
=354	=354
*^	*
8B/L	2.r	2.r
8e/	.	.
8a\	.	.
8g#/	.	.
8b\	.	.
8ee\J	.	.
*v	*v	*
=355	=355
4E\ 4B\ 4g#\	8aa\L
.	8gg#\
4r	8bb\
.	8eee\
4r	8aaa\
.	8ggg#\J
=356	=356
2.r	8eee\L
.	8bb\J
.	8aa\L
.	8gg#\J
.	8ee\L
.	8b\J
=357	=357
2.r	8a\L
.	8g#\J
.	8e/L
.	8B/J
.	8A\L
.	8G#\J
=358	=358
*^	*
8E\L	2.r	2.r
8BB\J	.	.
8AA\L	.	.
8GG#\J	.	.
8EE\L	.	.
8BBB\J	.	.
*v	*v	*
=359	=359
2.EEE/	2.r
=360	=360
2.r	2.r
=361	=361
!!linebreak:original
*^	*^
2.E/	2.AAA\ [2.AA\	(2.e/	[2.c#
=362	=362	=362	=362
[2.F#/	[2.DD\ 2.AA\_	[2.f#/	2.c#_
=363	=363	=363	=363
2.F#/_	2.DD\_ 2.AA\_	2.f#/_	4c#\]
.	.	.	4B\
.	.	.	4c#\
=364	=364	=364	=364
2.F#/]	2.DD\] 2.AA\]	2.f#/]	4e\
.	.	.	4.d\
.	.	.	8c#\)
=365	=365	=365	=365
2.E/	2.AAA\ [2.AA\	(2.e/	[2.c#
=366	=366	=366	=366
[2.F#/	[2.DD\ 2.AA\_	[2.f#/	2.c#_
=367	=367	=367	=367
2.F#/_	2.DD\_ 2.AA\_	2.f#/_	4c#\]
.	.	.	4B\
.	.	.	4c#\
=368	=368	=368	=368
2.F#/_	2.DD\_ 2.AA\_	2.f#/]	4e\
.	.	.	4.d\
.	.	.	8c#\
=369	=369	=369	=369
2.F#/]	2.DD\] 2.AA\]	2.r	2.r
*v	*v	*	*
=370	=370	=370
*^	*	*
*	*^	*	*
[2.G#/	2.E\	[2.EE\	[2.e/	2.c#\
*v	*v	*v	*	*
=371	=371	=371
*^	*	*
*	*^	*	*
2G#/]	2D\	2EE\]	2.e/]	2B\
4ryy	4C#/	[4AA\	.	4A\
*v	*v	*v	*	*
*	*v	*v
=372	=372
*^	*
[2.E/	[2.AA\	[2.c#/
=373	=373	=373
2.E/]	2.AA\]	2.c#/])
*v	*v	*
=374	=374
!!pagebreak:original
4r	(2.cc#\
4r	.
(4E\ 4Gn\ 4A#\	.
=375	=375
.	32bq/LLL
.	32cc#q/JJJ
4D\) 4F#\ 4B\	4.b\
4r	.
.	8a/
(4F#\ 4An\ 4d\	4b\
=376	=376
2E#\ 2G#\ 2c#\	4.cc#\
.	8dd\
4En\ 4Gn\ 4A#\	4cc#\
=377	=377
.	32bq/LLL
.	32cc#q/JJJ
4D\) 4F#\ 4B\	4.b\
4r	.
.	8a/
(4F#\ 4An\ 4d\	4b\
=378	=378
4C#\) 4G#\ 4e#\	(8cc#/L)
.	8c#/J
4r	8cc#/L
.	8g#/J
4r	8cc#/L
.	8g#/J
=379	=379
4CC#'/	8gg#\L
.	8cc#\J
4r	8gg#\L
.	8cc#\J
4r	8ccc#\L
.	8gg#\J
=380	=380
2.r	8ccc#\L
.	8gg#\J
.	8ggg#\L
.	8ccc#\J
.	8ggg#\L
.	8ccc#\J
=381	=381
2.r	8cccc#\)
.	8r
.	4r
.	4r;
=382	=382
!!linebreak:original
*^	*^
2.E/	2.AAA\ [2.AA\	(2.e/	[2.c#
=383	=383	=383	=383
[2.F#/	[2.DD\ 2.AA\_	[2.f#/	2.c#_
=384	=384	=384	=384
2.F#/_	2.DD\_ 2.AA\_	2.f#/_	4c#\]
.	.	.	4B\
.	.	.	4c#\
=385	=385	=385	=385
2.F#/]	2.DD\] 2.AA\]	2.f#/]	4e\
.	.	.	4.d\
.	.	.	8c#\)
=386	=386	=386	=386
2.E/	2.AAA\ [2.AA\	(2.e/	[2.c#
=387	=387	=387	=387
[2.F#/	[2.DD\ 2.AA\_	[2.f#/	2.c#_
=388	=388	=388	=388
2.F#/_	2.DD\_ 2.AA\_	2.f#/_	4c#\]
.	.	.	4B\
.	.	.	4c#\
=389	=389	=389	=389
2.F#/_	2.DD\_ 2.AA\_	2.f#/]	4e\
.	.	.	4.d\
.	.	.	8c#\
=390	=390	=390	=390
2.F#/]	2.DD\] 2.AA\]	2.r	2.r
*v	*v	*	*
=391	=391	=391
*^	*	*
*	*^	*	*
[2.G#/	2.E\	[2.EE\	[2.e/	2.c#\
*v	*v	*v	*	*
=392	=392	=392
*^	*	*
*	*^	*	*
2G#/]	2D\	2EE\]	2.e/]	2B\
4ryy	4C#/	[4AA\	.	4A\
*v	*v	*v	*	*
*	*v	*v
=393	=393
!!linebreak:original
*^	*
[2.E/	[2.AA\	[2.c#/
=394	=394	=394
2.E/]	2.AA\]	2.c#/])
*v	*v	*
=395	=395
!!pagebreak:original
2.r	2.r
=396	=396
2.r	([2.cc#\
=397	=397
2.r	2.cc#\_
=398	=398
2.r	8cc#\L]
.	8dd#\
.	8ff#\
.	8ee\
.	8cc#\
.	8a\J
=399	=399
.	16g#q/LL)
.	(16g#q/JJ
4r	(2.gg#\)
4r	.
*clefG2	*
(4Bn/ 4d/ 4e#/	.
=400	=400
.	32ff#q/LLL
.	32gg#q/JJJ
4A/) 4c#/ 4f#/	4.ff#\
4r	.
.	8ee\
(4c#/ 4en/ 4a/	4ff#\
=401	=401
2B#/ 2d#/ 2g#/	4.gg#\
.	8aa\
4Bn/ 4dn/ 4e#/	4gg#\
=402	=402
.	32ff#q/LLL
.	32gg#q/JJJ
4A/) 4c#/ 4f#/	4.ff#\
4r	.
.	8ee\
(4c#/ 4en/ 4a/	4ff#\
=403	=403
4G#/) 4d#/ 4b#/	[2.gg#\
4r	.
4r	.
=404	=404
!!linebreak:original
*clefF4	*
4GG#'/	4gg#\_)
4r	(8gg#\L
.	8g#\
4r	8gg#\
.	8dd#\J
=405	=405
2.r	8gg#\L
.	8dd#\J
.	8ddd#\L
.	8gg#\J
.	8ddd#\L
.	8gg#\J
=406	=406
2.r	8ggg#'\)
.	8r;
.	4gg#/
.	4ff#/
=407	=407
*^	*^
4r	2.C#\	([2.ee/	4r
4e/	.	.	(8f##\L
.	.	.	8g#\J
[4G#/	.	.	12b\L
.	.	.	12a\
.	.	.	12g#\J)
=408	=408	=408	=408
4G#/]	2.D#\ 2.F#\	4ee/]	[2.g#\
4B#/	.	4ee/	.
[4G#/	.	4dd#/	.
=409	=409	=409	=409
4G#/]	2.E\	4cc#/)	4g#\]
4c#/	.	4r	(8f##\L
.	.	.	8g#\J
[4G#/	.	4r	12b\L
.	.	.	12a\
.	.	.	12g#\J)
=410	=410	=410	=410
4G#/]	2.BB#\	4r	[2.g#\
4d#/	.	(4gg#/	.
[4G#/	.	4ff#/	.
*v	*v	*	*
*	*v	*v
=411	=411
!!linebreak:original
*^	*^
4G#/]	2.C#\	[2.ee/	4g#\]
4e/	.	.	(8f##\L
.	.	.	8g#\J
[4G#/	.	.	12b\L
.	.	.	12a\
.	.	.	12g#\J)
*v	*v	*	*
*	*v	*v
=412	=412
!!pagebreak:original
*^	*^
4G#/]	2.D#\ 2.F#\	4ee/]	2.g#\
4B#/	.	4ee/	.
[4G#/	.	4dd#/	.
*	*	*v	*v
=413	=413	=413
4G#/]	2.E\	4cc#\)
4c#/	.	(8b#\L
.	.	8cc#\J
4G#/	.	12ee\L
.	.	12ddn\
.	.	12cc#\J)
=414	=414	=414
*	*	*^
4Bn/	2.E#\	4r	[2.cc#\
4g#/	.	(4ccc#/	.
[4c#/	.	4bb/	.
=415	=415	=415	=415
4c#/]	2.F#\ 2.A\	[2.aa/	4cc#\]
4f#/	.	.	(8b#\L
.	.	.	8cc#\J
[4c#/	.	.	12ee\L
.	.	.	12dd\
.	.	.	12cc#\J)
=416	=416	=416	=416
4c#/]	2.G#\ 2.B\	4aa/]	[2.cc#\
4e#/	.	4aa/	.
[4c#/	.	4gg#/	.
=417	=417	=417	=417
4c#/]	2.A\	4ff#/)	4cc#\]
4f#/	.	4r	(8b#\L
.	.	.	8cc#\J
[4c#/	.	4r	12ee\L
.	.	.	12dd\
.	.	.	12cc#\J)
=418	=418	=418	=418
4c#/]	2.E#\	4r	[2.cc#\
4g#/	.	(4ccc#/	.
[4c#/	.	4bb/	.
*v	*v	*	*
*	*v	*v
=419	=419
!!linebreak:original
*^	*^
4c#/]	2.F#\ 2.A\	[2.aa/	4cc#\]
4a/	.	.	(8b#\L
.	.	.	8cc#\J
[4c#/	.	.	12ee\L
.	.	.	12dd\
.	.	.	12cc#\J)
*v	*v	*	*
*	*v	*v
=420	=420
!!linebreak:original
*^	*^
4c#/]	2.G#\ 2.B\	4aa/]	[2.cc#\
4e#/	.	4aa/	.
[4c#/	.	4gg#/	.
=421	=421	=421	=421
4c#/]	2.A\	[2.ff#/	4cc#\]
4f#/	.	.	(8b#\L
.	.	.	8cc#\J
4c#/	.	.	12ee\L
.	.	.	12dd\
.	.	.	12cc#\J)
*v	*v	*	*
=422	=422	=422
4AA'/	4ff#/]	2.cc#\
(4c#\	4gg#/	.
4F#\)	4aa/	.
=423	=423	=423
*^	*	*
2.D#/	4GG#\	4gg#/)	4r
.	4B#\	4r	(8f##\L
.	.	.	8g#\J
.	4F#\	4r	12bn\L
.	.	.	12a\
.	.	.	12g#\J)
=424	=424	=424	=424
2.E/	4E\	4r	[2.g#\
.	4c#\	(4ff#/	.
.	4G#\	4ee/	.
=425	=425	=425	=425
2.F#/	4GG#\	[2.dd#/	4g#\]
.	4B#\	.	(8f##\L
.	.	.	8g#\J
.	[4G#\	.	12bn\L
.	.	.	12a\
.	.	.	12g#\J)
=426	=426	=426	=426
2.E/	4G#\]	4dd#/]	[2.g#\
.	4c#\	4dd#/	.
.	4G#\	4cc#/	.
*v	*v	*	*
*	*v	*v
=427	=427
!!pagebreak:original
*^	*^
2.D#/	4GG#\	4b#/)	4g#\]
.	4B#\	4r	(8f##\L
.	.	.	8g#\J
.	[4G#\	4r	12bn\L
.	.	.	12a\
.	.	.	12g#\J)
=428	=428	=428	=428
2.E/	4G#\]	4r	(2.g#\
.	4c#\	(4ff#/	.
.	4G#\	4ee/	.
*v	*v	*	*
=429	=429	=429
2.r	4dd#/)	4a\)
*	*v	*v
.	(8a#\L
.	8b\J
.	12dd#\L
.	12cc#\
.	12b\J)
=430	=430
*^	*^
*	*^	*	*
2.BB\]) 2.d#\	2.F#]	2.A]	4r	2.b\
.	.	.	(4ee/	.
.	.	.	4ff#/)	.
*v	*v	*v	*	*
*	*v	*v
=431	=431
*^	*
4r	(2.E\	(8g#\L
.	.	8b\J
(4B/ 4e/	.	8ee\L
.	.	8gg#\J
4G#/)	.	8ff#\L
.	.	8ee\J
=432	=432	=432
4r	2.D#\	8gg#\L
.	.	8bb\J
(4B/ 4e/	.	8eee\L
.	.	8ggg#\J
4G#/)	.	8fff#\L
.	.	8eee\J
=433	=433	=433
4r	4C#\)	8bb\L
.	.	8gg#\J
*v	*v	*
(4B/ 4e/	8ff#\L
.	8ee\J
4G#/)	8b/L
.	8g#/J
=434	=434
!!linebreak:original
(2.BB/	8f#/L
.	8e/
.	8B/
.	8g#/
.	8f#/
.	8e/J
=435	=435
!!linebreak:original
4AA'/)	8c#/L
.	8e/J
(4c#\ 4e\	8f#/L
.	8a/J
4F#\)	8cc#\L
.	8ee\J
=436	=436
4FF#'/	8ff#\L
.	8aa\J
(4c#\ 4e\	8ccc#\L
.	8eee\J
4F#\)	8fff#\L
.	8aaa\J
=437	=437
4BB'/	8ggg#\L
.	8fff#\J
*^	*
[2B/ [2d#/	4r	8ddd#\L
.	.	8aa\J
.	(4F#\	8gg#\L
.	.	8ff#\J
=438	=438	=438
2.B/] 2.d#/]	4G#\	8dd#\L
.	.	8b\J
.	4F#\	8dd#\L
.	.	8cc#\J
.	4G#\)	8b/L
.	.	8a/J)
=439	=439	=439
4r	(2.E\	(8g#\L
.	.	8b\J
(4B/ 4e/	.	8ee\L
.	.	8gg#\J
4G#/)	.	8ff#\L
.	.	8ee\J
=440	=440	=440
4r	2.D#\	8gg#\L
.	.	8bb\J
(4B/ 4e/	.	8eee\L
.	.	8ggg#\J
4G#/)	.	8fff#\L
.	.	8eee\J
*v	*v	*
=441	=441
!!linebreak:original
*^	*
4r	4C#\)	8bb\L
.	.	8gg#\J
*v	*v	*
(4B/ 4e/	8ff#\L
.	8ee\J
4G#/)	8b/L
.	8g#/J
=442	=442
!!pagebreak:original
(2.BB/	8f#/L
.	8e/
.	8B/
.	8g#/
.	8f#/
.	8e/J
=443	=443
4AA'/)	8c#/L
.	8e/J
(4c#\ 4e\	8f#/L
.	8a/J
4F#\)	8cc#\L
.	8ee\J
=444	=444
4FF#'/	8ff#\L
.	8aa\J
(4c#\ 4e\	8ccc#\L
.	8eee\J
4F#\)	8fff#\L
.	8aaa\J
=445	=445
4BB'/	8ggg#\L
.	8fff#\J
*^	*
[2B/ [2d#/	4r	8ddd#\L
.	.	8aa\J
.	(4F#\	8gg#\L
.	.	8ff#\J
=446	=446	=446
2.B/] 2.d#/]	4G#\	8dd#\L
.	.	8b\J
.	4F#\	8dd#\L
.	.	8cc#\J
.	4G#\)	8b/L
.	.	8a/J)
=447	=447	=447
4r	2.E\	(8g#\L
.	.	8b\J
(4B/ 4e/	.	8ee\L
.	.	8gg#\J
4G#/)	.	8ff#\L
.	.	8ee\J
*v	*v	*
=448	=448
!!linebreak:original
4BB'/	8gg#\L
.	8bb\J
(4B\ 4e\	8eee\L
.	8ggg#\J
4G#\)	8fff#\L
.	8eee\J
=449	=449
(4AA\ 4A\	8cccn\L
.	8aa\J
2Cn\) 2cn\	8ff#\L
.	8ee\J
.	8ccn\L
.	8a\J
=450	=450
2.r	8f#\L
.	8e\J
.	8cn\L
.	8A\J
.	8F#\L
.	8E\J)
=451	=451
*^	*
4r	2.EE\	8G#/L
.	.	8B/J
(4E/	.	8e/L
.	.	8g#/J
4BB/)	.	8f#/L
.	.	8e/J
*v	*v	*
=452	=452
4BBB/	8g#\L
.	8b\J
(4E\	8ee\L
.	8gg#\J
4BB/)	8ff#\L
.	8ee\J
=453	=453
(4AAA/ 4AA/	8ccn\L
.	8a\J
2CCn/) 2Cn/	8f#/L
.	8e/J
.	8cn\L
.	8A\J
=454	=454
!!linebreak:original
*^	*
8F#/L	2.r	2.r
8E/J	.	.
8Cn\L	.	.
8AA\J	.	.
8FF#\L	.	.
8EE\J	.	.
*v	*v	*
=455	=455
!!linebreak:original
4EEE'\	4r
4r	8BB\L
.	8E\
4r	8A\
.	8G#\J
=456	=456
*^	*
8B/L	2.r	2.r
8e/	.	.
8a\	.	.
8g#/	.	.
8b\	.	.
8ee\J	.	.
*v	*v	*
=457	=457
4E\ 4B\ 4g#\	8aa\L
.	8gg#\
4r	8bb\
.	8eee\
4r	8aaa\
.	8ggg#\J
=458	=458
2.r	8eee\L
.	8bb\J
.	8aa\L
.	8gg#\J
.	8ee\L
.	8b\J
=459	=459
2.r	8a\L
.	8g#\J
.	8e/L
.	8B/J
.	8A\L
.	8G#\J
=460	=460
*^	*
8E\L	2.r	2.r
8BB\J	.	.
8AA\L	.	.
8GG#\J	.	.
8EE\L	.	.
8BBB\J	.	.
*v	*v	*
=461	=461
2.EEE/	2.r
=462	=462
2.r	2.r
=463	=463
!!pagebreak:original
4DDD'\ 4DD'\	4r
4r	8BB\L
.	8Fn\
4r	8A\
.	8G#\J
=464	=464
*^	*
8B/L	2.r	2.r
8fn/	.	.
8a\	.	.
8g#/	.	.
8b\	.	.
8ffn\J	.	.
*v	*v	*
=465	=465
4D\ 4G#\ 4B\ 4fn\	8aa\L
.	8gg#\
4r	8bb\
.	8fffn\
4r	8aaa\
.	8ggg#\J
=466	=466
2.r	8fffn\L
.	8bb\J
.	8aa\L
.	8gg#\J
.	8ffn\L
.	8b\J
=467	=467
2.r	8a\L
.	8g#\J
.	8fn/L
.	8B/J
.	8A\L
.	8G#\J
=468	=468
*^	*
8Fn\L	2.r	2.r
8BB\J	.	.
8AA\L	.	.
8GG#\J	.	.
8FFn\L	.	.
8BBB\J	.	.
*v	*v	*
=469	=469
[2.DDD/	2.r
=470	=470
!!linebreak:original
(2.DDD/]	2.r
=471	=471
!!linebreak:original
4CCC#'/) 4CC#'/	4r
4r	(8a#\L
.	8g#\J
4r	8b\L
.	8ee#\J
=472	=472
(4GG#\ 4G#\	8aa#\L
.	8gg#\J
4D#\ 4d#\	8bb\L
.	8eee#\J
4C#\ 4c#\	8aaa#\L
.	8ggg#\J
=473	=473
2C#\) 2c#\	8aa#\L
.	8eeen\J
.	8ggg#\L
.	8fff##\J
4r	8eee\L
.	8aa#\J
=474	=474
4CC#'/ 4C#'/	8gg#\L
.	8ff##\J
4r	8een\L
.	8a#\J
4r	8g#/L
.	8f##/J)
=475	=475
4CCC#'/ 4CC#'/	(8An/L
.	8d#/J
4r	8g#/L
.	8f#/J
4r	8an\L
.	8dd#\J
=476	=476
!!linebreak:original
(4GG#\ 4G#\	8gg#\L
.	8ff#\J
4D#\ 4d#\	8aa\L
.	8ddd#\J
4C#\ 4c#\	8ggg#\L
.	8fff#\J
=477	=477
!!pagebreak:original
4C#'\) 4c#'\	8gg#\L
.	8ccc#\J
(4FFF##/ 4FF##/	8fff#\L
.	8eee#\J
4GGG#/ 4GG#/	8ccc#\L
.	8gg#\J
=478	=478
4GGG#/ 4GG#/	8ff#\L
.	8ee#\J
4DD#/ 4D#/	8cc#/L
.	8g#/J
4CC#/ 4C#/	8f#/L
.	8e#/J)
=479	=479
4DDn'/) 4Dn'/	(8cn/L
.	8f#/J
4r	8b/L
.	8a/J
4r	8ccn\L
.	8ff#\J
=480	=480
(4AA\ 4A\	8bb\L
.	8aa\J
4E\ 4e\	8cccn\L
.	8fff#\J
4D\ 4d\	8bbb\L
.	8aaa\J
=481	=481
2D^\) 2d^\	8bb\L
.	8fffn\J
.	8aaa\L
.	8ggg#\J
4r	8fff\L
.	8bb\J
=482	=482
4DD'/ 4D'/	8aa\L
.	8gg#\J
4r	8ffn\L
.	8b\J
4r	8a/L
.	8g#/J)
=483	=483
!!linebreak:original
4DDD'/ 4DD'/	(8B-/L
.	8e/J
4r	8a/L
.	8gn/J
4r	8b-\L
.	8ee\J
=484	=484
4GGn/ 4Gn/	8aa\L
.	8ggn\J
(4E\ 4e\	8bb-\L
.	8eee\J
4D\ 4d\	8aaa\L
.	8gggn\J
=485	=485
4D'\) 4d'\	8aa\L
.	8ddd\J
(4CC#/ 4C#/	8gggn\L
.	8fff#\J
4DD/ 4D/	8ddd\L
.	8aa\J
=486	=486
4DD/) 4D/	8ggn\L
.	8ff#\J
(4BBB/ 4BB/	8dd\L
.	8a\J
4CCn/ 4Cn/	8gn/L
.	8f#/J)
=487	=487
4BBB-/) 4BB-/	4d/ 4gn/ 4dd/
(4d\	(8cc#\L
.	8dd\J
4D\) 4Gn\	12ffn\L
.	12ee-\
.	12dd\J)
=488	=488
2.r	2.r
=489	=489
!!linebreak:original
*	*^
4GGn^/	4ggn/) 4bb-/	4dd\]
*	*v	*v
(4d\	(8cc#\L
.	8dd\J
4D\) 4B-\	12ffn\L
.	12ee-\
.	12dd\J)
=490	=490
*^	*^
4Cn^/	2.C\	4r	[2.dd\
(4d/	.	(4b-/ 4bb-/	.
4F#/) 4A/	.	4a/ 4aa/	.
*v	*v	*	*
=491	=491	=491
4BB-^\	4gn/) 4ggn/	4dd\]
*	*v	*v
(4d\	(8cc#\L
.	8dd\J
4D\) 4Gn\	12ffn\L
.	12ee-\
.	12dd\J)
=492	=492
2.r	2.r
=493	=493
4GGn^/	2.r
(4d\	.
4Gn\)	.
=494	=494
2.r	2.r
=495	=495
!!linebreak:original
*	*^
4Cn^/	4ccn/) 4ee-/	4g\]
*	*v	*v
(4e-\	(8ff#\L
.	8ggn\J
4Gn\)	12bb-\L
.	12aa-\
.	12gg\J)
=496	=496
2.r	2.r
=497	=497
4E-^\	2.r
(4gn\	.
4Gn\) 4cn\	.
=498	=498
*^	*
4Fn/	(2.F\	2.r
(4gn/	.	.
4Gn/) 4Bn/	.	.
*	*	*^
=499	=499	=499	=499
4E-/	2.E-\)	4ccn/) 4cccn/	4gg\]
*	*	*v	*v
(4e-/	.	(8f#\L
.	.	8gn\J
4Gn/) 4cn/	.	12b-\L
.	.	12a-\
.	.	12g\J)
*v	*v	*
=500	=500
!!pagebreak:original
*^	*
4D^/	(2.D\	2.r
(4d/	.	.
4Gn/)	.	.
=501	=501	=501
*	*	*^
4Cn^/	2.C\)	4ccn/) 4ee-/	4g\]
*	*	*v	*v
(4cn/	.	(8d\L
.	.	8e-\J
4E-/) 4Gn/	.	12gn\L
.	.	12fn\
.	.	12e-\J)
=502	=502	=502
4BB-^/	2.BB-\	2.r
(4d-/	.	.
4E-/) 4Gn/	.	.
*v	*v	*
=503	=503
4AA-^/	2.r
(4c-\	.
4E-\) 4A-\	.
=504	=504
4GGn^/	2.r
(4e-\	.
4E-\) 4B-\	.
=505	=505
!!linebreak:original
*	*^
4AA-^/	4aa-/) 4ccc-/	4ee-\]
*	*v	*v
(4e-\	(8ddn\L
.	8ee-\J
4E-\) 4A-\ 4c-\	12gg-\L
.	12ff-\
.	12ee-\J)
=506	=506
!!linebreak:original
*	*^
4BB-^/	4r	[2.ee-\
(4e-\	(4cc-/ 4ccc-/	.
4E-\) 4Gn\ 4d-\	4b-/ 4bb-/	.
=507	=507	=507
4C-^/	4a-/) 4aa-/	4ee-\]
*	*v	*v
(4e-\	(8ddn\L
.	8ee-\J
4E-\) 4A-\ 4c-\	12gg-\L
.	12ff-\
.	12ee-\J)
=508	=508
2.r	2.r
=509	=509
4AA-^/	2.r
(4e-\	.
4E-\) 4A-\ 4c-\	.
=510	=510
4BB-^/	2.r
(4e-\	.
4E-\) 4Gn\ 4d-\	.
=511	=511
*	*^
4CC-'/ 4C-'/	4a-/) 4aa-/	4ff-\
*	*v	*v
4r	4r
(4G#\ 4en\	4r
=512	=512
!!linebreak:original
.	(gg#q/
4Bn\) 4bn\	(4ggg#\)
4r	8fff#\L
.	8eeen\J
(4G#\ 4e\	8bbn\L
.	8gg#\J
=513	=513
4B\) 4b\	8ff#/L
.	8ee/J
4r	8b/L
.	8g#/J
4r	8f#/L
.	8e/J
=514	=514
2.r	4B/)
.	4r
.	4r
=515	=515
4BBB'/ 4BB'/	(8dd#\L
.	8ee\J
4r	8ff#\L
.	8gg#\J
4r	8aa\L
.	8bb\J
=516	=516
(4An\ 4cn\ 4d#\ 4f#\	4cccn\)
4A\ 4c\ 4d#\ 4g#\	4r
4A\ 4c\ 4d#\ 4f#\	4r
=517	=517
4A\) 4cn\ 4d#\ 4f#\	8cccn\L
.	8bb\J
4r	8aa\L
.	8gg#\J
4r	8ff#\L
.	8ee\J
=518	=518
(4BBB/ 4BB/	4dd#\
4AAA/ 4AA/	4r
4CCn/ 4Cn/	4r
=519	=519
!!pagebreak:original
.	gg#q/
4BBB'/) 4BB'/	([2.ggg#\
4G#\ 4e\	.
(4G#\ 4e\	.
=520	=520
4.B\) 4.b\	4ggg#\]
.	8fff#\L
8G#\ 8e\	8eee\J
(4G#\ 4e\	8bb\L
.	8gg#\J
=521	=521
4B\) 4b\	8ff#\L
.	8ee\J
4r	8b/L
.	8g#/J
4r	8f#/L
.	8e/J
=522	=522
2.r	4B/)
.	4r
.	4r
=523	=523
4DDn'/ 4Dn'/	(8ee#\L
.	8ff#\J
4r	8gg#\L
.	8aa\J
4r	8bb\L
.	8ccc#\J
=524	=524
*clefG2	*
(4B/ 4f#/ 4g#/	4ddd\)
4B/ 4f#/ 4a/	4r
4B/ 4f#/ 4g#/	4r
=525	=525
4B/) 4e#/ 4g#/	(8ddd\L
.	8ccc#\J
4r	8bb\L
.	8aa\J
4r	8gg#\L
.	8ff#\J
=526	=526
!!linebreak:original
*clefF4	*
(4DD/ 4D/	4ee#\)
4BBB#/ 4BB#/	4r
4CC#/) 4C#/	4r
=527	=527
!!linebreak:original
4EEn'/ 4En'/	(8ff##\L
.	8gg#\J
4r	8aa#\L
.	8bb\J
4r	8ccc#\L
.	8ddd#\J
=528	=528
*clefG2	*
(4c#/ 4g#/ 4a#/	4eeen\)
4c#/ 4g#/ 4b/	4r
4c#/ 4g#/ 4a#/	4r
=529	=529
4c#/) 4f##/ 4a#/	(8eee\L
.	8ddd#\J
4r	8ccc#\L
.	8bb\J
4r	8aa#\L
.	8gg#\J
=530||	=530||
*clefF4	*k[b-e-a-d-g-]
*k[b-e-a-d-g-]	*
(4FF-/ 4F-/	4ggn\)
4DDn/ 4Dn/	4r
4EE-/) 4E-/	4r
=531	=531
4GG-'/ 4G-'/	(8aan\L
.	8bb-\J
4r	8ccc\L
.	8ddd-\J
*clefG2	*
(4c/ 4an/	8eee-\L
.	8fff\J
=532	=532
!!linebreak:original
4e-/) 4an/ 4ee-/	8ggg-\L
.	8eeee-\J
4r	8ggg-\L
.	8fff\J
(4c/ 4e-/ 4a/	8eee-\L
.	8ddd-\J
=533	=533
!!pagebreak:original
4e-/) 4an/ 4ee-/	8ccc\L
.	8ddd-\J
4r	8dddn\L
.	8eee-\J
4G-^/ 4g-^/	8eeen\L
.	8fff\J
=534	=534
4G-^/ 4g-^/	8ggg-\L
.	8eeee-\J
4G-^/ 4g-^/	8ggg-\L
.	8fff\J
4G-^/ 4g-^/	8eee-\L
.	8ddd-\J
=535	=535
4F/ 4c/ 4e-/ 4an/	8ccc\)
.	8r
4r	(8ffff\L
.	8eeeen\
4r	8eeee-\
.	8cccc\J
=536	=536
8fff\L	4aaan\)
8eeen\	.
8eee-\	4r
8ccc\J	.
4aan\	(8ff\L
.	8een\J
=537	=537
*clefF4	*
4r	8ee-\L
.	8cc\J
(8f\L	4an/)
8en\	.
8e-\	4r
8c\J	.
=538	=538
!!linebreak:original
*	*clefF4
4An\)	(8F\L
.	8En\
4r	8E-\
.	8C\J)
4FF^/	4r
=539	=539
!!linebreak:original
*	*clefG2
4BBB-^/ 4BB-^/	4dd-^\ 4ddd-^\
(4B-\ 4b-\	(8een\L
.	8ff\J
4d-\) 4f\	12aa-\L
.	12gg-\
.	12ff\J)
=540	=540
4AA-^\ 4A-^\	4ff^\
(4A-\ 4a-\	(4een\ 4eeen\
4c\) 4f\	4ff\ 4fff\
=541	=541
4GG-^/ 4G-^/	4b-\) 4bb-\
(4G-\ 4g-\	(8cc\L
.	8dd-\J
4B-\) 4d-\	12ff\L
.	12ee-\
.	12dd-\J)
=542	=542
4FF^/ 4F^/	4dd-^\
(4F\ 4f\	(4cc\ 4ccc\
4A-\) 4d-\	4dd-\ 4ddd-\
=543	=543
4EE-^/ 4E-^/	4g-\) 4gg-\
(4E-\ 4e-\	(8an\L
.	8b-\J
4G-\) 4B-\	12dd-\L
.	12cc\
.	12b-\J)
=544	=544
4DD-^/ 4D-^/	4b-^\
(4D-\ 4d-\	(4an\ 4aan\
4F\) 4B-\	4b-\ 4bb-\
=545	=545
4CC^/ 4C^/	4e-\) 4ee-\
(4C\ 4c\	(8f/L
.	8g-/J
4E-\) 4G-\	12b-/L
.	12a-/
.	12g-/J)
=546	=546
!!linebreak:original
*	*^
4BBB-^/ 4BB-^/	4r	2.g-\
(2BB-/ 2B-/	(4ddn/ 4ff/	.
.	4ee-/ 4gg-/	.
*	*v	*v
=547	=547
!!pagebreak:original
4AAn^\) 4C^\ 4F^\ 4An^\	4f^\) 4cc^\ 4ee-^\ 4ff^\
(8En\L	(8en/L
8F\J	8f/J
12A-\L	12a-/L
12G-\	12g-/
12F\J)	12f/J)
=548	=548
4BBB-/ 4BB-/	4F^/ 4B-^/ 4d-^/ 4f^/
(4E-\ 4e-\	(4ee-\ 4eee-\
4D-\ 4d-\	4dd-\ 4ddd-\
=549	=549
4FF^\) 4C^\ 4An^\	4cc^\) 4ff^\ 4aan^\ 4ccc^\
(8En\L	(8en/L
8F\J	8f/J
12A-\L	12a-/L
12G-\	12g-/
12F\J)	12f/J)
=550	=550
4BBB-/ 4BB-/	4F^/ 4B-^/ 4d-^/ 4f^/
(4C\ 4c\	(4cc\ 4ccc\
4BB-\ 4B-\	4b-\ 4bb-\
=551	=551
4FF^\) 4C^\ 4An^\	4an^\) 4cc^\ 4ff^\ 4aan^\
(8En\L	(8en/L
8F\J	8f/J
12A-\L	12a-/L
12G-\	12g-/
12F\J)	12f/J)
=552	=552
4BBB-/ 4BB-/	4F^/ 4B-^/ 4d-^/ 4f^/
(4E-\ 4e-\	(4ee-\ 4eee-\
4D-\ 4d-\	4dd-\ 4ddd-\
=553	=553
4FF^\) 4C^\ 4An^\	4cc^\) 4ff^\ 4aan^\ 4ccc^\
(8En\L	(8en/L
8F\J	8f/J
12A-\L	12a-/L
12G-\	12g-/
12F\J)	12f/J)
=554	=554
!!linebreak:original
4BBB-/ 4BB-/	4F^/ 4B-^/ 4d-^/ 4f^/
(4C\ 4c\	(4cc\ 4ccc\
4BB-\ 4B-\	4b-\ 4bb-\
=555	=555
4FF^\) 4C^\ 4An^\	4an^\) 4cc^\ 4ff^\ 4aan^\
(8En\L	(8en/L
8F\J	8f/J
12A-\L	12a-/L
12G-\	12g-/
12F\J)	12f/J)
=556	=556
4F^\	4f^/
(4d-\	(4dd-\ 4ddd-\
4c\	4cc\ 4ccc\
=557	=557
4FF^\) 4C^\ 4An^\	4an^\) 4cc^\ 4ff^\ 4aan^\
(8BBn/L	(8Bn/L
8C/J	8c/J
12E-/L	12e-/L
12D-/	12d-/
12C/J)	12c/J)
=558	=558
4CC^/ 4C^/	4c^/
(4B-\	(4b-\
4An\	4an/
=559	=559
4FF^\) 4C^\ 4An^\	4an^\) 4cc^\ 4ff^\ 4aan^\
(8En\L	(8en/L
8F\J	8f/J
12A-\L	12a-/L
12G-\	12g-/
12F\J)	12f/J)
=560	=560
4F^\	4f^/
(4d-\	(4dd-\ 4ddd-\
4c\	4cc\ 4ccc\
=561	=561
!!linebreak:original
4FF^\) 4C^\ 4An^\	4an^\) 4cc^\ 4ff^\ 4aan^\
(8BBn/L	(8Bn/L
8C/J	8c/J
12E-\L	12e-/L
12D-\	12d-/
12C\J)	12c/J)
=562	=562
!!linebreak:original
4CC^/ 4C^/	4c^/
(4B-\	(4b-\
4An\	4an/
=563	=563
4FF^/) 4C^/ 4F^/	4an^\) 4cc^\ 4ff^\ 4aan^\
(8BBn/L	(8Bn/L
8C/J	8c/J
12E-\L	12e-/L
12D-\	12d-/
12C\J)	12c/J)
=564	=564
4CC^/ 4C^/	4c^/
(4B-\	(4b-\
4An\	4an/
=565	=565
4FF^/) 4C^/ 4F^/	4an^\) 4cc^\ 4ff^\ 4aan^\
(8BBn/L	(8Bn/L
8C/J	8c/J
12E-\L	12e-/L
12D-\	12d-/
12C\J)	12c/J)
=566	=566
4CC^/ 4C^/	4c^/
(4B-\	(4b-\
4An\	4an/
=567	=567
4FF^/) 4C^/ 4F^/	4an^\) 4cc^\ 4ff^\ 4aan^\
*	*clefF4
(8BBBn/L	(8BBn/L
8CC/J	8C/J
12EE-/L	12E-/L
12DD-/	12D-/
12CC/J)	12C/J)
=568	=568
4CC/	4C/
4BB-'/	4B-'\
4AAn'/	4An'\
=569	=569
!!pagebreak:original
4FF/	4F\
(8BBBn/L	(8BBn/L
8CC/J	8C/J
12EE-/L	12E-/L
12DD-/	12D-/
12CC/J)	12C/J)
=570	=570
4CC/	4C/
4BB-'/	4B-'\
4AAn'/	4An'\
=571	=571
4FF/	4F\
4r	4r
4r	4r
=572	=572
2.r	2.r
=573	=573
4r	4r
(8BBBn/L	(8BBn/L
8CC/J	8C/J
12EE-/L	12E-/L
12DD-/	12D-/
12CC/J)	12C/J)
=574	=574
4CC/	4C/
4BB-'/	4B-'\
4AAn'/	4An'\
=575	=575
4FF/	4F\
4r	4r
4r	4r
=576	=576
4r	4r
(4BBB-/	(4BB-/
4AAAn/	4AAn/
=577	=577
2.FFF/)	2.FF/)
=578	=578
2.r	2.r
=579	=579
!!linebreak:original
4r	4r
4r	4r
*	*clefG2
(12AAn/L	(12An/L
12BB-/	12B-/
12D-/J	12d-/J
=580	=580
4F\)	4f/)
4r	4r
(12AAn/L	(12An/L
12BB-/	12B-/
12D-/J	12d-/J
=581	=581
[2.F\	[2.f/
=582	=582
2.F\])	2.f/])
=583	=583
4BBB-'/ 4BB-'/	4B-'/
4r	4r
4r	4r
=584	=584
*clefG2	*
[2.B-/ [2.c/ [2.e-/ [2.g-/ [2.b-/	([2.bb-\ [2.ggg-\ [2.bbb-\
=585	=585
2.B-/] 2.c/] 2.e-/] 2.g-/] 2.b-/]	2.bb-\] 2.ggg-\] 2.bbb-\]
=586	=586
4.B-/ 4.c/ 4.e-/ 4.g-/ 4.b-/	4.ee-\ 4.ccc\ 4.eee-\
8B-/ 8c/ 8e-/ 8g-/ 8b-/	8ff\ 8ccc\ 8fff\
4B-/ 4c/ 4e-/ 4g-/ 4b-/	4gg-\ 4ccc\ 4ggg-\
=587	=587
4B-'/ 4d-'/ 4f'/ 4b-'/	4ff'\) 4ddd-'\ 4fff'\
4r	4r
*clefF4	*
(12AAn/L	(12An/L
12BB-/	12B-/
12D-/J	12d-/J
=588	=588
!!linebreak:original
4F\)	4f/)
4r	4r
(12AAn/L	(12An/L
12BB-/	12B-/
12D-/J	12d-/J
=589	=589
!!linebreak:original
[2.F\	[2.f/
=590	=590
2.F\])	2.f/])
=591	=591
4AAA-'/ 4AA-'/	4A-'/
4r	4r
4r	4r
=592	=592
*clefG2	*
[2.A-/ [2.f/ [2.dd-/	([2.aa-\ [2.fff\ [2.aaa-\
=593	=593
2.A-/] 2.f/] 2.dd-/]	2.aa-\] 2.fff\] 2.aaa-\]
=594	=594
4.A-/ 4.e-/ 4.g-/ 4.a-/	4.ee-\ 4.ccc\ 4.eee-\
8A-/ 8e-/ 8g-/ 8a-/	8ff\ 8ccc\ 8fff\
4A-/ 4e-/ 4g-/ 4a-/	4gg-\ 4ccc\ 4ggg-\
=595	=595
4d-'/ 4f'/ 4a-'/	4ff'\) 4ddd-'\ 4fff'\
4r	4r
4r	4r
=596	=596
*clefF4	*
2F\ 2c\ 2f\	2an\ 2ff\
4r	4r
=597	=597
2FF/ 2C/ 2F/	2An/ 2f/
4r	4r
=598	=598
([2.FFF/ [2.FF/	2.r
=599	=599
2.FFF/_ 2.FF/_	2.r
=600	=600
4FFF/] 4FF/]	2.r
4GGG-'/) 4GG-'/	.
4r	.
=601	=601
2.r	2.r
=602	=602
!!pagebreak:original
4r	4r
4r	4r
(12AAn/L	(12An/L
12BB-/	12B-/
12D-/J	12d-/J
=603	=603
4F\)	4f/)
4r	4r
(12AAn/L	(12An/L
12BB-/	12B-/
12D-/J	12d-/J
=604	=604
[2.F\	[2.f/
=605	=605
2.F\])	2.f/])
=606	=606
4BBB-'/ 4BB-'/	4B-'/
4r	4r
4r	4r
=607	=607
*clefG2	*
[2.B-/ [2.c/ [2.e-/ [2.g-/ [2.b-/	([2.bb-\ [2.ggg-\ [2.bbb-\
=608	=608
4.B-/] 4.c/] 4.e-/] 4.g-/] 4.b-/]	4.bb-\] 4.ggg-\] 4.bbb-\]
8B-/ 8c/ 8e-/ 8g-/ 8b-/	8ee-\ 8ccc\ 8eee-\
4B-/ 4c/ 4e-/ 4g-/ 4b-/	4ee-\ 4ccc\ 4eee-\
=609	=609
4.B-/ 4.c/ 4.e-/ 4.g-/ 4.b-/	4.ee-\ 4.ccc\ 4.eee-\
8B-/ 8c/ 8e-/ 8g-/ 8b-/	8ff\ 8ccc\ 8fff\
4B-/ 4c/ 4e-/ 4g-/ 4b-/	4gg-\ 4ccc\ 4ggg-\
=610	=610
4B-'/ 4d-'/ 4f'/ 4b-'/	4ff'\) 4ddd-'\ 4fff'\
4r	4r
*clefF4	*
(12AAn/L	(12An/L
12BB-/	12B-/
12D-/J	12d-/J
=611	=611
!!linebreak:original
4F\)	4f/)
4r	4r
(12AAn/L	(12An/L
12BB-/	12B-/
12D-/J	12d-/J
=612	=612
[2.F\	[2.f/
=613	=613
2.F\])	2.f/])
=614	=614
*	*clefF4
4CCC'/ 4CC'/	4C'/
4r	4r
4r	4r
=615	=615
*clefG2	*clefG2
[2.c/ [2.f/ [2.a-/ [2.cc/	([2.ccc\ [2.aaa-\ [2.cccc\
=616	=616
2.c/] 2.f/] 2.a-/] 2.cc/]	2.ccc\] 2.aaa-\] 2.cccc\]
=617	=617
4.c/ 4.en/ 4.b-/ 4.cc/	4.ggn\ 4.eeen\ 4.gggn\
8c/ 8e/ 8b-/ 8cc/	8aa-\ 8eee\ 8aaa-\
4c/ 4e/ 4b-/ 4cc/	4bb-\ 4eee\ 4bbb-\
=618	=618
4f'/ 4a-'/ 4cc'/	4aa-'\) 4fff'\ 4aaa-'\
4r	4r
4r	4r
=619	=619
*clefF4	*
2F\ 2c\ 2f\	2a-\ 2cc\ 2ff\ 2aa-\
4r	4r
=620	=620
2FF/ 2C/ 2F/	2A-/ 2c/ 2f/ 2a-/
4r	4r
=621	=621
([2.EEEn/ [2.EEn/	2.r
=622	=622
2.EEE/] 2.EE/]	2.r
=623	=623
!!linebreak:original
*^	*
2.FF/	2.FFF\	2.r
*v	*v	*
=624	=624
2.r	16DD
.	16EE-
.	16FF
.	16EE-
.	16FF
.	16EE-
.	16FF
.	16EE-
.	16FF
.	16EE-
.	16FF
.	16EE-
=625	=625
2.r	16FF
.	16EE-
.	16FF
.	16EE-
.	16FF
.	16EE-
.	16FF
.	16EE-
.	16FF
.	16EE-
.	16DDn/LL
.	16EE-/JJ
=626	=626
4DDD-'/) 4DD-'/	([2.ffff\
4r	.
(4AA-\ 4A-\	.
=627	=627
4F\) 4d-\	4ffff\]
4r	8eeee-\L
.	8dddd-\
(4AA-\ 4A-\	8aaa-\
.	8fff\J
=628	=628
!!linebreak:original
4F\) 4d-\	8eee-\L
.	8ddd-\
4r	8aa-\
.	8ff\
4r	8ee-\
.	8dd-\J
=629	=629
2.r	4a-/)
.	4r
.	4r
=630	=630
4AAA-'/ 4AA-'/	(8cc\L
.	8dd-\J
4r	8ee-\L
.	8ff\J
4r	8gg-\L
.	8aa-\J
=631	=631
(4Gn\ 4c\ 4g-\	8bb--\)
.	8r
4A-\) 4c\ 4g-\	4r
4A-\ 4c\ 4g-\	4r
=632	=632
!!pagebreak:original
2.r	(8bb--\L
.	8aa-\J
.	8ggn\L
.	8gg-\J
.	8ff\L
.	8ff-\J
=633	=633
(4B--\ 4c\ 4g-\	8ee-\)
.	8r
4A-\) 4c\ 4g-\	4r
4A-\ 4c\ 4g-\	4r
=634	=634
4DDD-'/ 4DD-'/	([2.ffff\
4r	.
(4AA-\ 4A-\	.
=635	=635
4F\) 4d-\	4ffff\]
4r	8eeee-\L
.	8dddd-\
(4AA-\ 4A-\	8aaa-\
.	8fff\J
=636	=636
4F\) 4d-\	8eee-\L
.	8ddd-\
4r	8aa-\
.	8ff\
4r	8ee-\
.	8dd-\J
=637	=637
2.r	4a-/)
.	4r
.	4r
=638	=638
(2.AA-\ 2.E-\ 2.G-\	(8cc\L
.	8dd-\J
.	8ee-\L
.	8ff\J
.	8gg-\L
.	8aa-\J
=639	=639
!!linebreak:original
*clefG2	*
8c/L	8bb--\)
8d-/J	8r
8e-/L	4r
8f/J	.
8g-/L	4r
8a-/J	.
=640	=640
!!linebreak:original
8b--'\)	(8bb--\L
8r	8aa-\J
4r	8ggn\L
.	8gg-\J
4r	8ff\L
.	8ff-\J
=641	=641
*clefF4	*
(8B--\L	8ee-'\)
8A-\J	8r
8Gn\L	4r
8G-\J	.
8F\L	4r
8E-\J	.
=642	=642
*^	*^
8D-/)	8D-\L	([2.ff/	[2.cc-\
3...ryy	8A-\	.	.
.	8d-\	.	.
.	8f\	.	.
.	8d-\	.	.
.	8A-\J	.	.
=643	=643	=643	=643
8D-/	8D-\L	4ff/]	2.cc-\]
3...ryy	8c-\	.	.
.	8d-\	4.ee-/	.
.	8f\	.	.
.	8d-\	.	.
.	8c-\J	8dd-/	.
=644	=644	=644	=644
8G-/	8G-\L	2.dd-/	2.cc-\
3...ryy	8c-\	.	.
.	8d-\	.	.
.	8g-\	.	.
.	8d-\	.	.
.	8c-\J	.	.
*v	*v	*	*
*	*v	*v
=645	=645
!!linebreak:original
*^	*^
8D-/	8D-\L	[2.gg-/	2.b-\
3...ryy	8B-\	.	.
.	8d-\	.	.
.	8g-\	.	.
.	8d-\	.	.
.	8B-\J	.	.
*v	*v	*	*
*	*v	*v
=646	=646
!!pagebreak:original
*^	*^
8A-/	8A-\L	2gg-/]	[2.cc-\
3...ryy	8c-\	.	.
.	8d-\	.	.
.	8a-\	.	.
.	8d-\	4ff/	.
.	8c-\J	.	.
=647	=647	=647	=647
8D-/	8D-\L	4ff/	2.cc-\]
3...ryy	8c-\	.	.
.	8d-\	4ee-/	.
.	8f\	.	.
.	8d-\	4dd-/	.
.	8c-\J	.	.
=648	=648	=648	=648
8G-/	8G-\L	2.bb-/	2.b-\ 2.dd-\
3...ryy	8B-\	.	.
.	8d-\	.	.
.	8g-\	.	.
.	8d-\	.	.
.	8B-\J	.	.
=649	=649	=649	=649
8F-/	8F-\L	2bb-/	2.a-\ 2.dd-\
3...ryy	8B-\	.	.
.	8d-\	.	.
.	8a-\	.	.
.	8d-\	4bb-/	.
.	8B-\J	.	.
=650	=650	=650	=650
*	*	*v	*v
8E-/	8E-\L	2.r
3...ryy	8B-\	.
.	8d-\	.
.	8gn\	.
.	8d-\	.
.	8B-\J	.
*v	*v	*
=651	=651
!!linebreak:original
*^	*
8Gn/	8G\L	2.r
3...ryy	8d-\	.
.	8e-\	.
.	8b-\	.
.	8e-\	.
.	8d-\J	.
*v	*v	*
=652	=652
!!linebreak:original
*^	*^
8A-/	8A-\L	2.ee-/	2.dd-\
3...ryy	8d-\	.	.
.	8e-\	.	.
.	8a-\	.	.
.	8e-\	.	.
.	8d-\J	.	.
=653	=653	=653	=653
8E-/	8E-\L	[2.aa-^/	2.cc\
3...ryy	8c\	.	.
.	8e-\	.	.
.	8a-\	.	.
.	8e-\	.	.
.	8c\J	.	.
=654	=654	=654	=654
8B-/	8B-\L	4aa-/]	[2.dd-\
3...ryy	8d-\	.	.
.	8e-\	4ggn/	.
.	8b-\	.	.
.	8e-\	4ff/	.
.	8d-\J	.	.
=655	=655	=655	=655
8E-/	8E-\L	4ggn/	2.dd-\]
3...ryy	8d-\	.	.
.	8e-\	4.ff/	.
.	8gn\	.	.
.	8e-\	.	.
.	8d-\J	8ee-/	.
=656	=656	=656	=656
8A-/	8A-\L	2.ccc/	[2.cc\
3...ryy	8c\	.	.
.	8e-\	.	.
.	8a-\	.	.
.	8e-\	.	.
.	8c\J	.	.
*v	*v	*	*
*	*v	*v
=657	=657
!!linebreak:original
*^	*^
2.Gn~/	8G\L	2ccc/	2.cc\]
.	8A-\	.	.
.	8c\	.	.
.	8e-\	.	.
.	8c\	4ccc/	.
.	8A-\J	.	.
*v	*v	*	*
*	*v	*v
=658	=658
!!pagebreak:original
*^	*
2.G-~/	8G-\L	[2.ccc\
.	8A-\	.
.	8c\	.
.	8e-\	.
.	8c\	.
.	8A-\J	.
=659	=659	=659
2.G-/	8G-\L	4ccc\]
.	8A-\	.
.	8c\	4.bb-\
.	8e-\	.
.	8c\	.
.	8A-\J	8aa-\
=660	=660	=660
2.F/	8F\L	2.aa-\
.	8A-\	.
.	8d-\	.
.	8f\	.
.	8d-\	.
.	8A-\J	.
=661	=661	=661
8F/	8F\L	2.ddd-\
3...ryy	8A-\	.
.	8d-\	.
.	8a-\	.
.	8d-\	.
.	8A-\J	.
=662	=662	=662
8E-/	8E-\L	2ddd-\
3...ryy	8A-\	.
.	8c\	.
.	8g-\	.
.	8c\	4ccc\
.	8A-\J	.
=663	=663	=663
8E-/	8E-\L	4ccc\
3...ryy	8A-\	.
.	8c\	4.bb-\
.	8g-\	.
.	8c\	.
.	8A-\J	8aa-\
*v	*v	*
=664	=664
!!linebreak:original
*^	*
8Dn/	8D\L	2.fff\
3...ryy	8A-\	.
.	8c-\	.
.	8f\	.
.	8c-\	.
.	8A-\J	.
=665	=665	=665
8Dn/	8D\L	2fff\
3...ryy	8A-\	.
.	8B-\	.
.	8f\	.
.	8B-\	4fff\
.	8A-\J	.
=666	=666	=666
8E-/	8E-\L	2.fff\
3...ryy	8G-\	.
.	8B-\	.
.	8e-\	.
.	8B-\	.
.	8G-\J	.
=667	=667	=667
8GG-/	8GG-\L	4eee-\
3...ryy	8G-\	.
.	8B-\	4ddd-\
.	8e-\	.
.	8B-\	4bb-\
.	8G-\J	.
=668	=668	=668
8AA-/	8AA-\L	2.ccc\
3...ryy	8F\	.
.	8A-\	.
.	8d-\	.
.	8A-\	.
.	8F\J	.
=669	=669	=669
8AA-/	8AA-\L	4bb-\
3...ryy	8F\	.
.	8A-\	4aa-\
.	8d-\	.
.	8A-\	4ff\
.	8F\J	.
*v	*v	*
=670	=670
!!linebreak:original
*^	*
8AA-/	8AA-\L	4bb-\
3...ryy	8G-\	.
.	8A-\	4aa-\
.	8c\	.
.	8A-\	4gg-\
.	8G-\J	.
*v	*v	*
=671	=671
!!linebreak:original
*^	*
8AA-/	8AA-\L	4gg-\
3...ryy	8G-\	.
.	8A-\	4.ff\
.	8c\	.
.	8A-\	.
.	8G-\J	8een\
=672	=672	=672
8D-/	8D-\L	2.een\
3...ryy	8A-\	.
.	8d-\	.
.	8f\	.
.	8d-\	.
.	8B-\J	.
=673	=673	=673
8A-/	8A-\L	2ff\)
3...ryy	8d-\	.
.	8f\	.
.	8a-\	.
.	8f\	([4aa-^\
.	8d-\J	.
=674	=674	=674
*	*	*^
2.G-/	8G-\L	2.aa-/]	2a-\
.	8A-\	.	.
.	8c\	.	.
.	8e-\	.	.
.	8c\	.	[4cc\
.	8A-\J	.	.
=675	=675	=675	=675
*	*	*v	*v
2.G-/	8G-\L	2.r
.	8A-\	.
.	8c\	.
.	8e-\	.
.	8c\	.
.	8A-\J	.
=676	=676	=676
2.F/	8F\L	2.a-\ [2.aa-\
.	8A-\	.
.	8d-\	.
.	8f\	.
.	8d-\	.
.	8A-\J	.
*v	*v	*
=677	=677
!!pagebreak:original
*^	*
8F/	8F\L	2.dd-\ 2.aa-\] 2.ddd-\
3...ryy	8A-\	.
.	8d-\	.
.	8a-\	.
.	8d-\	.
.	8A-\J	.
=678	=678	=678
*	*	*^
8E-/	8E-\L	4.dd-\ 4.ddd-\	2gg-/ 2aa-/
3...ryy	8A-\	.	.
.	8c\	.	.
.	8g-\	8cc\ 8ccc\	.
*	*	*v	*v
.	8c\	4cc\ 4gg-\ 4aa-\ 4ccc\
.	8A-\J	.
=679	=679	=679
8E-/	8E-\L	4.cc\ 4.gg-\ 4.aa-\ 4.ccc\
3...ryy	8A-\	.
.	8c\	.
.	8g-\	8b-\ 8gg-\ 8bb-\
.	8c\	4a-\ 4gg-\ 4aa-\
.	8A-\J	.
=680	=680	=680
8Dn/	8D\L	2.ff\ 2.aa-\ 2.fff\
3...ryy	8A-\	.
.	8c-\	.
.	8f\	.
.	8c-\	.
.	8A-\J	.
=681	=681	=681
8Dn/	8D\L	2ff\ 2aa-\ 2fff\
3...ryy	8A-\	.
.	8B-\	.
.	8f\	.
.	8B-\	4ff\ 4aa-\ 4fff\
.	8A-\J	.
=682	=682	=682
8E-/	8E-\L	2.ff\ 2.aa-\ 2.fff\
3...ryy	8G-\	.
.	8B-\	.
.	8e-\	.
.	8B-\	.
.	8G-\J	.
*v	*v	*
=683	=683
!!linebreak:original
*^	*
8GG-/	8GG-\L	4ee-\ 4gg-\ 4eee-\
3...ryy	8G-\	.
.	8B-\	4.dd-\ 4.gg-\ 4.ddd-\
.	8e-\	.
.	8B-\	.
.	8G-\J	8b-\ 8gg-\ 8bb-\
=684	=684	=684
8AA-/	8AA-\L	2.cc\ 2.aa-\ 2.ccc\
3...ryy	8F\	.
.	8A-\	.
.	8d-\	.
.	8A-\	.
.	8F\J	.
=685	=685	=685
8AA-/	8AA-\L	4b-\ 4gg-\ 4bb-\
3...ryy	8F\	.
.	8A-\	4a-\ 4ff\ 4aa-\
.	8d-\	.
.	8A-\	4b-\ 4ff\ 4bb-\
.	8F\J	.
=686	=686	=686
8AA-/	8AA-\L	2cc-\ 2ff\ 2ccc-\
3...ryy	8F\	.
.	8A-\	.
.	8dn\	.
.	8A-\	4b-\ 4ff\ 4bb-\
.	8F\J	.
=687	=687	=687
8AA-/	8AA-\L	[2.cc-\ [2.ff\ [2.ccc-\
3...ryy	8F\	.
.	8A-\	.
.	8dn\	.
.	8A-\	.
.	8F\J	.
=688	=688	=688
8AA-/	8AA-\L	2cc-\] 2ff\] 2ccc-\]
3...ryy	8F\	.
.	8A-\	.
.	8dn\	.
.	8A-\	4b-\ 4ff\ 4bb-\
.	8F\J	.
*v	*v	*
=689	=689
!!linebreak:original
*^	*
8AA-/	8AA-\L	4cc-\ 4ff\ 4ccc-\
3...ryy	8F\	.
.	8A-\	4b-\ 4ff\ 4bb-\
.	8dn\	.
.	8A-\	4cc-\ 4ff\ 4ccc-\
.	8F\J	.
=690	=690	=690
8AA-/	8AA-\L	2cc-\ 2gg-\ 2ccc-\
3...ryy	8E-\	.
.	8G-\	.
.	8e-\	.
.	8G-\	4b-\ 4gg-\ 4bb-\
.	8E-\J	.
=691	=691	=691
8AA-/	8AA-\L	[2.dd-\ [2.ggn\ [2.ddd-\
3...ryy	8En\	.
.	8Gn\	.
.	8en\	.
.	8G\	.
.	8E\J	.
=692	=692	=692
8AA-/	8AA-\L	2dd-\] 2gg\] 2ddd-\]
3...ryy	8En\	.
.	8Gn\	.
.	8en\	.
.	8G\	4cc\ 4ggn\ 4ccc\
.	8E\J	.
=693	=693	=693
8AA-/	8AA-\L	4dd-\ 4ggn\ 4ddd-\
3...ryy	8En\	.
.	8Gn\	4cc\ 4gg\ 4ccc\
.	8en\	.
.	8G\	4dd-\) 4gg\ 4ddd-\
.	8E\J	.
*v	*v	*
=694	=694
!!linebreak:original
*^	*
8AA-/	8AA-\L	(2dd-\ 2aa-\ 2ddd-\
3...ryy	8F\	.
.	8A-\	.
.	8f\	.
.	8A-\	4cc\ 4aa-\ 4ccc\
.	8F\J	.
=695	=695	=695
8AA-/	8AA-\L	2ee-\ 2aan\ 2eee-\
3...ryy	8E-\	.
.	8G-\	.
.	8c\	.
.	8G-\	4ee-\) 4aa\ 4eee-\
.	8E-\J	.
=696	=696	=696
8AA-/	8AA-\L	(2ee-\ 2aa-\ 2eee-\
3...ryy	8C-\	.
.	8F\	.
.	8c-\	.
.	8F\	4ddn\ 4aa-\ 4dddn\
.	8C-\J	.
=697	=697	=697
8AA-/	8AA-\L	2ff\ 2ccc-\ 2fff\
3...ryy	8F\	.
.	8A-\	.
.	8dn\	.
.	8A-\	4ff\) 4ccc-\ 4fff\
.	8F\J	.
=698	=698	=698
8AA-/	8AA-\L	(2ff\ 2bb-\ 2fff\
3...ryy	8D-\	.
.	8Gn\	.
.	8d-\	.
.	8G\	4een\ 4bb-\ 4eeen\
.	8D-\J	.
*v	*v	*
=699	=699
!!pagebreak:original
*^	*
8AA-/	8AA-\L	2ggn\ 2ddd-\ 2gggn\
3...ryy	8F-\	.
.	8B-\	.
.	8f-\	.
.	8B-\	4gg\ 4ddd-\ 4ggg\
.	8F-\J	.
=700	=700	=700
8AA-/	8AA-\L	2ggn\ 2ccc\ 2gggn\
3...ryy	8E-\	.
.	8G-\	.
.	8e-\	.
.	8G-\	4aa-\ 4ccc\ 4aaa-\
.	8E-\J	.
=701	=701	=701
8AA-/	8AA-\L	2bb--\ 2ccc\ 2bbb--\
3...ryy	8E-\	.
.	8G-\	.
.	8c\	.
.	8G-\	4cc\ 4gg-\ 4ccc\
.	8E-\J	.
*v	*v	*
=702	=702
4DD-'/	4dd-'\) 4ff'\ 4ddd-'\
4r	4r
(8AA-/L	4r
8F/J	.
=703	=703
4d-^\)	(8f\L
.	8dd-\J
4r	8aa-\L
.	8ff\J
4r	8ddd-\L
.	8bbb-\J
=704	=704
4AAA-'/	4ccc\) 4aaa-\
4r	4r
(8AA-/L	4r
8E-/J	.
=705	=705
4c^\)	(8g-\L
.	8cc\J
4r	8aa-\L
.	8gg-\J
4r	8ccc\L
.	8aaa-\J
=706	=706
!!linebreak:original
4DD-'/	4ddd-\) 4fff\
4r	4r
(8AA-/L	4r
8F/J	.
=707	=707
4d-^\)	(8f\L
.	8dd-\J
4r	8aa-\L
.	8ff\J
4r	8ddd-\L
.	8bbb-\J
=708	=708
4AAA-'/	4ccc\) 4aaa-\
4r	4r
(8AA-/L	4r
8E-/J	.
=709	=709
4c^\)	(8g-\L
.	8cc\J
4r	8aa-\L
.	8gg-\J
4r	8ccc\L
.	8aaa-\J)
=710||	=710||
*k[f#c#g#]	*k[f#c#g#]
.	(ccc#q/
4AAA'/ 4AA'/	(4cccc#\)
(4DD#/ 4D#/	8bbb\L
.	8aaa\J
4EE/) 4E/	8eee\L
.	8ccc#\J
=711	=711
2.EE/ 2.E/	8bb\L
.	8aa\J
.	8ee\L
.	8cc#\J
.	8b/L
.	8a/J
=712	=712
!!linebreak:original
*	*clefF4
4r	8e\L
.	8c#\J
(4DD#/	8B\L
.	8A\J
4EE/	4E\)
=713	=713
!!linebreak:original
2AAA/ 2FFn/	(2Fn\ 2fn\
4AAA/) 4EE/	4E\) 4e\
=714	=714
*	*clefG2
.	(ccc#q/
4AAA'/ 4AA'/	(4cccc#\)
(4DD#/ 4D#/	8bbb\L
.	8aaa\J
4EE/) 4E/	8eee\L
.	8ccc#\J
=715	=715
2.EE/ 2.E/	8bb\L
.	8aa\J
.	8ee\L
.	8cc#\J
.	8b/L
.	8a/J
=716	=716
*	*clefF4
4r	8e\L
.	8c#\J
(4DD#/	8B\L
.	8A\J
4EE/	4E\)
=717	=717
2AAA/ 2FFn/	(2Fn\ 2fn\
4AAA/) 4EE/	4E\) 4e\
=718||	=718||
*k[b-e-a-d-g-]	*clefG2
*	*k[b-e-a-d-g-]
4AAAn/ 4FF/	4F/ 4f/
4r	(8F/L
.	8An/J
(4AAA/ 4AAn/	8d-/L
.	8f/J
=719	=719
!!pagebreak:original
4FF/) 4F/	4dd-\) 4ff\
4r	(8F/L
.	8An/J
(4AAAn/ 4AAn/	8d-/L
.	8f/J
=720	=720
!!linebreak:original
4FF/) 4F/	4dd-\) 4ff\
4r	(8F/L
.	8B-/J
(4BBB-/ 4BB-/	8d-/L
.	8f/J
=721	=721
4FF/) 4F/	4dd-\) 4ff\
4r	(8F/L
.	8B-/J
(4BBB-/ 4BB-/	8dn/L
.	8f/J
=722	=722
4FF/) 4F/	4ddn\) 4ff\
4r	(8G-/L
.	8B-/J
(4BBB-/ 4BB-/	8dn/L
.	8g-/J
=723	=723
4FF/) 4F/	4ddn\) 4gg-\
4r	(8G-/L
.	8B-/J
(4BBB-/ 4BB-/	8e-/L
.	8g-/J
=724	=724
4FF/) 4F/	4ee-\) 4gg-\
4r	(8Gn/L
.	8d-/J
(4BBB--/ 4BB--/	8en/L
.	8gn/J
=725	=725
4BB--\) 4B--\	4een\) 4ggn\
4r	(8a-\L
.	8dd-\J
(4AAA-/ 4AA-/	8ff\L
.	[8aa-\J
=726	=726
4F\) 4A-\ 4d-\ 4f\	4aa-\]) 4ddd-\ 4fff\ 4aaa-\
4r	4r
(12C\L	(12c/L
12D-\	12d-/
12F\J	12f/J
=727	=727
!!linebreak:original
4A-\)	4a-/)
4r	4r
(12BBn/L	(12Bn/L
12C/	12c/
12F/J	12f/J
=728	=728
!!linebreak:original
4A-\)	4a-/)
4r	4r
(12AAn\L	(12An/L
12BB-\	12B-/
12F\J	12f/J
=729	=729
4A-\)	4a-/)
4r	4r
4r	4r
=730	=730
4AAA-'/ 4AA-'/	4A-'/
4r	4r
4r	4r
=731	=731
*clefG2	*
[2.g-\ [2.cc\ [2.ff\	[2.aa-\ [2.fff\ [2.aaa-\
=732	=732
4g-\] 4cc\] 4ff\]	4aa-\] 4fff\] 4aaa-\]
4g-\ 4cc\ 4ee-\	4aa-\ 4eee-\ 4aaa-\
4g-\ 4cc\ 4ff\	4aa-\ 4fff\ 4aaa-\
=733	=733
4g-\ 4cc\ 4ee-\	4aa-\ 4eee-\ 4aaa-\
4g-\ 4cc\ 4ff\	4aa-\ 4fff\ 4aaa-\
4g-\ 4cc\ 4ee-\	4aa-\ 4eee-\ 4aaa-\
=734	=734
4f\ 4a-\ 4dd-\ 4ff\	4aa-\ 4ddd-\ 4fff\ 4aaa-\
4r	4r
*clefF4	*
(12C\L	(12c/L
12D-\	12d-/
12F\J	12f/J
=735	=735
4A-\)	4a-/)
4r	4r
(12BBn/L	(12Bn/L
12C/	12c/
12F/J	12f/J
=736	=736
4A-\)	4a-/)
4r	4r
(12AAn\L	(12An/L
12BB-\	12B-/
12F\J	12f/J
=737	=737
!!pagebreak:original
4A-\)	4a-/)
4r	4r
4r	4r
=738	=738
!!linebreak:original
4AAA-'/ 4AA-'/	4A-'/
4r	4r
4r	4r
=739	=739
*clefG2	*
[2.g-\ [2.cc\ [2.ff\	[2.aa-\ [2.fff\ [2.aaa-\
=740	=740
4g-\] 4cc\] 4ff\]	4aa-\] 4fff\] 4aaa-\]
4g-\ 4cc\ 4ee-\	4aa-\ 4eee-\ 4aaa-\
4g-\ 4cc\ 4ff\	4aa-\ 4fff\ 4aaa-\
=741	=741
4g-\ 4cc\ 4ee-\	4aa-\ 4eee-\ 4aaa-\
4g-\ 4cc\ 4ff\	4aa-\ 4fff\ 4aaa-\
4g-\ 4cc\ 4ee-\	4aa-\ 4eee-\ 4aaa-\
=742	=742
*^	*^
2ff/	2.g-\ 2.cc\	(2.aa-/ 2.aaa-/	2fff\
4ee-/	.	.	4eee-\
=743	=743	=743	=743
2ff/	2.g-\ 2.cc\	2.aan/ 2.aaan/	2fff\
4ee-/	.	.	4eee-\
=744	=744	=744	=744
2ff/	2.g-\ 2.cc\	2.aan/ 2.aaan/	2fff\
4ee-/	.	.	4eee-\
=745	=745	=745	=745
2gg-/	2.gn\ 2.dd-\	2.bb-/ 2.bbb-/	2ggg-\
4ff-/	.	.	4fff-\
=746	=746	=746	=746
2gg-/	2.gn\ 2.dd-\	2.bb-/ 2.bbb-/	2ggg-\
4ff-/	.	.	4fff-\
=747	=747	=747	=747
2ggn/	2.a-\ 2.ddn\	2.bbn/ 2.bbbn/	2gggn\
4ffn/	.	.	4fffn\
=748	=748	=748	=748
2ggn/	2.a-\ 2.ddn\	2.bbn/ 2.bbbn/	2gggn\
4ff/	.	.	4fff\
*v	*v	*	*
*	*v	*v
=749	=749
!!linebreak:original
*^	*^
2aa-/	2.a-\ 2.ee-\	2.ccc/ 2.cccc/	2aaa-\
4gg-/	.	.	4ggg-\)
*v	*v	*	*
*	*v	*v
=750	=750
*clefF4	*
4DD-'/ 4D-'/	4ffff\
4GGn/	8eeee-\L
.	8dddd-\
4AA-/	8aaa-\
.	8fff\J
=751	=751
4AA-/	8eee-\L
.	8ddd-\
4GG-/ 4G-/	8aa-\
.	8ff\
4FF/ 4F/	8ee-\
.	8dd-\J
=752	=752
4GG-/ 4G-/	8a-/L
.	8f/
(4GGn/	8e-/
.	8d-/J
4AA-/	4A-/
=753	=753
*	*^
2BB--/	(2B--/ 2b--/	2.f\
4AA-/)	4A-/) 4a-/	.
*	*v	*v
=754	=754
4DD-'/ 4D-'/	4ffff\
4GGn/	8eeee-\L
.	8dddd-\
4AA-/	8aaa-\
.	8fff\J
=755	=755
4AA-/	8eee-\L
.	8ddd-\
4GG-/ 4G-/	8aa-\
.	8ff\
4FF/ 4F/	8ee-\
.	8dd-\J
=756	=756
!!pagebreak:original
4GG-/ 4G-/	8a-/L
.	8f/
(4GGn/	8e-/
.	8d-/J
4AA-/	4A-/
=757	=757
*	*^
2BB--/	(2B--/ 2b--/	2.f\
4AA-/)	4A-/) 4a-/	.
*	*v	*v
=758	=758
4DD-/ 4D-/	4A-/ 4f/ 4a-/
4GGn/	4r
4AA-/	4r
=759	=759
4r	(2B--/ 2b--/
(4GG-/ 4G-/	.
4FF/) 4F/	4A-/) 4a-/
=760	=760
4DD-/ 4D-/	4A-/ 4f/ 4a-/
4GGn/	4r
4AA-/	4r
=761	=761
4r	(2B--/ 2b--/
(4GG-/ 4G-/	.
4FF/) 4F/	4A-/) 4a-/
=762	=762
4DD-/ 4D-/	4A-/ 4f/ 4a-/
4GGn/	4r
4AA-/	4r
=763	=763
4r	(2B--/ 2b--/
(4GG-/ 4G-/	.
4FF/) 4F/	4A-/) 4a-/
=764	=764
4DD-'/ 4BB--'/	4B--'/ 4f'/ 4b--'/
4DD-'/ 4AA-'/	4A-'/ 4f'/ 4a-'/
4DD-'/ 4BB--'/	4B--'/ 4f'/ 4b--'/
=765	=765
!!linebreak:original
4DD-'/ 4AA-'/	4A-'/ 4f'/ 4a-'/
4DD-'/ 4BB--'/	4B--'/ 4f'/ 4b--'/
4DD-'/ 4AA-'/	4A-'/ 4f'/ 4a-'/
=766	=766
4CC'/ 4AAn'/	4An'/ 4f'/ 4an'/
4r	4r
4r	4r
=767	=767
4CC/ 4GGn/ 4C/	4c/ 4en/ 4b-/ 4cc/
4r	4r
4r	4r
=768	=768
4FF/ 4C/ 4F/	4an\ 4cc\ 4ff\ 4aan\
4r	4r
4r	4r
=769	=769
4AA-\ 4A-\	4g-\ 4a-\ 4cc\ 4ee-\ 4gg-\ 4aa-\
4r	4r
4r	4r
=770	=770
2.D-\ 2.A-\ 2.d-\	2.f\ 2.a-\ 2.dd-\ 2.ff\
=771	=771
2.r	2.r
=772	=772
2.DD-/ 2.AA-/ 2.D-/	2.F/ 2.A-/ 2.d-/ 2.f/
=773	=773
2.r	2.r
=774	=774
(D-q/	(d-q/
A-q/	a-q/
fq/	dd-q/
2.DDD-;/) 2.DD-;/	2.ffff;\)
==	==
*-	*-
